ncols        108
nrows        76
xllcorner    3451530.000000000000
yllcorner    2752420.000000000000
cellsize     30.000000000000
NODATA_value  -9999.900390625
 8.3000001907348632812 9.6999998092651367188 10.5 10.5 9.8999996185302734375 9.1999998092651367188 7.9000000953674316406 5.5 2.5 0.69999998807907104492 0.60000002384185791016 1.3999999761581420898 2 2.2000000476837158203 2.0999999046325683594 2.0999999046325683594 2 2.0999999046325683594 2.2000000476837158203 2.4000000953674316406 2.4000000953674316406 2.5 2.5 2.4000000953674316406 2.4000000953674316406 2.4000000953674316406 2.7000000476837158203 3.2000000476837158203 4 4.5 5.0999999046325683594 5.5999999046325683594 5.6999998092651367188 5.5 5.1999998092651367188 4.1999998092651367188 2.9000000953674316406 2.2000000476837158203 2.0999999046325683594 2 1.7999999523162841797 1.7999999523162841797 1.7000000476837158203 1.7000000476837158203 2 2.5999999046325683594 3.2000000476837158203 3.5999999046325683594 3.7999999523162841797 3.7999999523162841797 3.9000000953674316406 4.0999999046325683594 4.5999999046325683594 5.5999999046325683594 7 8.5 10.100000381469726562 11.699999809265136719 13 14.199999809265136719 15.199999809265136719 16 16.299999237060546875 16 15.399999618530273438 14.600000381469726562 13.699999809265136719 12.899999618530273438 12.100000381469726562 11.600000381469726562 11 10.300000190734863281 9.1000003814697265625 8 7.8000001907348632812 8.3999996185302734375 9.1999998092651367188 9.8000001907348632812 10.399999618530273438 10.899999618530273438 12 13.5 15.300000190734863281 17 18.200000762939453125 18.299999237060546875 17.5 16.799999237060546875 15.699999809265136719 14.600000381469726562 13.899999618530273438 13.5 13.199999809265136719 13.199999809265136719 13.100000381469726562 12.899999618530273438 12.600000381469726562 12.399999618530273438 12.100000381469726562 12.199999809265136719 12.5 12.5 12 11.399999618530273438 10.800000190734863281 10 9.1000003814697265625 8.3000001907348632812
 7.4000000953674316406 8.1999998092651367188 8.6999998092651367188 8.6999998092651367188 8.3000001907348632812 7.5 6.0999999046325683594 3.9000000953674316406 1.7000000476837158203 0.40000000596046447754 0.40000000596046447754 0.89999997615814208984 1.5 2 2.0999999046325683594 2.0999999046325683594 2 2.0999999046325683594 2.2999999523162841797 2.4000000953674316406 2.5 2.5 2.4000000953674316406 2.2999999523162841797 2.2999999523162841797 2.2999999523162841797 2.4000000953674316406 2.5999999046325683594 2.9000000953674316406 3.0999999046325683594 3.4000000953674316406 3.7999999523162841797 4.1999998092651367188 4.5999999046325683594 4.5999999046325683594 3.7999999523162841797 2.5999999046325683594 2 2 2 2 2 1.8999999761581420898 1.7999999523162841797 2.0999999046325683594 2.4000000953674316406 2.9000000953674316406 3.2000000476837158203 3.0999999046325683594 2.7000000476837158203 2.5999999046325683594 2.9000000953674316406 3.5999999046325683594 4.6999998092651367188 6.0999999046325683594 7.5 9 10.5 12 13.199999809265136719 14.199999809265136719 15 15.399999618530273438 15.199999809265136719 14.600000381469726562 13.899999618530273438 12.899999618530273438 12 11.300000190734863281 10.800000190734863281 10.300000190734863281 9.5 8.1000003814697265625 6.5999999046325683594 5.9000000953674316406 6.1999998092651367188 6.8000001907348632812 7.5 8.1000003814697265625 8.6000003814697265625 9.6999998092651367188 11.800000190734863281 14.199999809265136719 15.899999618530273438 16.600000381469726562 16.600000381469726562 16.200000762939453125 15.5 14.199999809265136719 13 12.5 12.5 12.5 12.699999809265136719 12.800000190734863281 12.399999618530273438 11.600000381469726562 10.800000190734863281 10.300000190734863281 10.399999618530273438 10.800000190734863281 10.800000190734863281 10.5 10 9.5 9 8.6000003814697265625 8.6999998092651367188
 7.3000001907348632812 7.3000001907348632812 7.0999999046325683594 6.8000001907348632812 6.5 5.9000000953674316406 4.5999999046325683594 2.9000000953674316406 1.2999999523162841797 0.40000000596046447754 0.10000000149011611938 0.10000000149011611938 0.80000001192092895508 1.7000000476837158203 2.0999999046325683594 2.0999999046325683594 2.0999999046325683594 2.2000000476837158203 2.2999999523162841797 2.4000000953674316406 2.4000000953674316406 2.4000000953674316406 2.4000000953674316406 2.2999999523162841797 2.2000000476837158203 2.2999999523162841797 2.4000000953674316406 2.4000000953674316406 2.5999999046325683594 2.5999999046325683594 2.5999999046325683594 2.7999999523162841797 3.2999999523162841797 3.7999999523162841797 4 3.5 2.5999999046325683594 2.0999999046325683594 2.2000000476837158203 2.2999999523162841797 2.4000000953674316406 2.4000000953674316406 2.2000000476837158203 2.2000000476837158203 2.4000000953674316406 2.7000000476837158203 3 3 2.7000000476837158203 2.2999999523162841797 2.0999999046325683594 2.2999999523162841797 2.7999999523162841797 3.5999999046325683594 4.9000000953674316406 6.0999999046325683594 7.4000000953674316406 9 10.5 11.800000190734863281 12.899999618530273438 13.899999618530273438 14.300000190734863281 14.199999809265136719 13.800000190734863281 13.199999809265136719 12.399999618530273438 11.399999618530273438 10.399999618530273438 9.8000001907348632812 9.1000003814697265625 8.3999996185302734375 7.0999999046325683594 5.5 4.4000000953674316406 4.3000001907348632812 4.6999998092651367188 5.3000001907348632812 6.0999999046325683594 6.8000001907348632812 8.1999998092651367188 10.399999618530273438 12.899999618530273438 14.300000190734863281 14.699999809265136719 14.699999809265136719 14.399999618530273438 13.5 12.300000190734863281 11.399999618530273438 11.399999618530273438 11.800000190734863281 12 12.100000381469726562 12.100000381469726562 11.699999809265136719 10.5 9.3000001907348632812 8.6000003814697265625 8.5 8.8000001907348632812 8.8999996185302734375 8.8999996185302734375 8.6999998092651367188 8.1999998092651367188 7.9000000953674316406 7.9000000953674316406 8.6000003814697265625
 7.6999998092651367188 7.4000000953674316406 6.8000001907348632812 6.1999998092651367188 5.9000000953674316406 5.1999998092651367188 4 2.5999999046325683594 1.2999999523162841797 0.60000002384185791016 0 -0.20000000298023223877 0.40000000596046447754 1.5 2 2.0999999046325683594 2.2000000476837158203 2.2000000476837158203 2.2999999523162841797 2.2999999523162841797 2.4000000953674316406 2.4000000953674316406 2.4000000953674316406 2.2999999523162841797 2.2999999523162841797 2.2999999523162841797 2.4000000953674316406 2.5 2.5 2.5 2.2999999523162841797 2.2000000476837158203 2.7000000476837158203 3.4000000953674316406 3.5999999046325683594 3.4000000953674316406 2.7999999523162841797 2.5999999046325683594 2.7000000476837158203 2.9000000953674316406 2.9000000953674316406 2.7000000476837158203 2.5 2.5999999046325683594 3.0999999046325683594 3.2999999523162841797 3.5 3.4000000953674316406 3 2.4000000953674316406 2.0999999046325683594 2.0999999046325683594 2.2999999523162841797 2.9000000953674316406 3.5999999046325683594 4.5999999046325683594 5.8000001907348632812 7.1999998092651367188 8.6000003814697265625 10.100000381469726562 11.5 12.699999809265136719 13.199999809265136719 13.100000381469726562 12.800000190734863281 12.300000190734863281 11.600000381469726562 10.600000381469726562 9.3999996185302734375 8.3000001907348632812 7.5999999046325683594 6.8000001907348632812 5.6999998092651367188 4.3000001907348632812 3.2999999523162841797 3 3.0999999046325683594 3.5999999046325683594 4.3000001907348632812 5.3000001907348632812 6.5999999046325683594 8.5 10.399999618530273438 12 12.899999618530273438 13.100000381469726562 12.699999809265136719 11.5 10.399999618530273438 9.8000001907348632812 9.8999996185302734375 10.5 10.600000381469726562 10.5 10.5 10.100000381469726562 9 7.6999998092651367188 6.8000001907348632812 6.5 6.5999999046325683594 6.9000000953674316406 7.1999998092651367188 7.1999998092651367188 7 7 7.5 8.5
 8.1000003814697265625 7.9000000953674316406 7.3000001907348632812 6.5999999046325683594 6.1999998092651367188 5.3000001907348632812 4.0999999046325683594 2.5999999046325683594 1.3999999761581420898 0.89999997615814208984 0.60000002384185791016 0.40000000596046447754 0.89999997615814208984 1.7000000476837158203 2 2.0999999046325683594 2.2000000476837158203 2.2000000476837158203 2.2999999523162841797 2.2999999523162841797 2.4000000953674316406 2.4000000953674316406 2.4000000953674316406 2.4000000953674316406 2.2999999523162841797 2.2999999523162841797 2.5 2.7000000476837158203 2.9000000953674316406 2.7999999523162841797 2.5 2.4000000953674316406 2.7000000476837158203 3.4000000953674316406 3.5999999046325683594 3.4000000953674316406 3.0999999046325683594 3.2000000476837158203 3.4000000953674316406 3.4000000953674316406 3.2999999523162841797 3.0999999046325683594 3 3.2999999523162841797 3.7000000476837158203 3.9000000953674316406 4.0999999046325683594 4.0999999046325683594 3.5999999046325683594 3 2.5999999046325683594 2.4000000953674316406 2.4000000953674316406 2.5 2.7999999523162841797 3.4000000953674316406 4.3000001907348632812 5.4000000953674316406 6.6999998092651367188 8.1000003814697265625 9.6000003814697265625 11 11.800000190734863281 11.600000381469726562 11.399999618530273438 10.899999618530273438 10.300000190734863281 9.3999996185302734375 8.1999998092651367188 7.0999999046325683594 6.1999998092651367188 5.3000001907348632812 4.3000001907348632812 3.2999999523162841797 2.5 2.2999999523162841797 2.4000000953674316406 2.7000000476837158203 3.2000000476837158203 3.7999999523162841797 4.8000001907348632812 5.9000000953674316406 7.1999998092651367188 8.6999998092651367188 10 10.699999809265136719 10.399999618530273438 9.6000003814697265625 8.6999998092651367188 8.1999998092651367188 8 8.3000001907348632812 8.1000003814697265625 7.8000001907348632812 7.8000001907348632812 7.5 6.6999998092651367188 5.8000001907348632812 5.0999999046325683594 4.6999998092651367188 4.9000000953674316406 5.4000000953674316406 5.8000001907348632812 5.9000000953674316406 6.1999998092651367188 6.9000000953674316406 7.9000000953674316406 9.1000003814697265625
 8.6000003814697265625 8.6999998092651367188 8.3000001907348632812 7.6999998092651367188 7.1999998092651367188 6.0999999046325683594 4.4000000953674316406 2.5 1.3999999761581420898 1.3999999761581420898 1.5 1.5 1.7000000476837158203 2.0999999046325683594 2.0999999046325683594 2.0999999046325683594 2.0999999046325683594 2.2000000476837158203 2.2999999523162841797 2.2999999523162841797 2.4000000953674316406 2.4000000953674316406 2.4000000953674316406 2.2999999523162841797 2.2999999523162841797 2.4000000953674316406 2.7999999523162841797 3.2999999523162841797 3.7999999523162841797 3.7999999523162841797 3.5 3.0999999046325683594 3.2999999523162841797 3.7000000476837158203 3.7999999523162841797 3.7000000476837158203 3.7000000476837158203 4 4.0999999046325683594 3.9000000953674316406 3.7000000476837158203 3.5999999046325683594 3.7999999523162841797 4.0999999046325683594 4.3000001907348632812 4.3000001907348632812 4.5999999046325683594 4.5999999046325683594 4.3000001907348632812 3.7999999523162841797 3.2999999523162841797 2.9000000953674316406 2.7000000476837158203 2.5 2.5 2.7000000476837158203 3.2000000476837158203 4 5 6.0999999046325683594 7.5 9.1999998092651367188 10.199999809265136719 10.199999809265136719 10 9.6000003814697265625 8.8000001907348632812 8 7 6.0999999046325683594 5.0999999046325683594 4.0999999046325683594 3.2000000476837158203 2.5999999046325683594 2.2000000476837158203 2 2.2000000476837158203 2.5 2.7000000476837158203 3.0999999046325683594 3.5999999046325683594 4 4.5999999046325683594 5.5 6.5 7.1999998092651367188 7.5 7.3000001907348632812 7.0999999046325683594 6.5999999046325683594 6.1999998092651367188 6.0999999046325683594 5.6999998092651367188 5.1999998092651367188 5 4.8000001907348632812 4.4000000953674316406 4 3.7000000476837158203 3.5999999046325683594 4.0999999046325683594 4.5999999046325683594 4.9000000953674316406 5.3000001907348632812 6.0999999046325683594 7.3000001907348632812 8.6000003814697265625 9.8000001907348632812
 9.5 10.100000381469726562 10 9.6000003814697265625 8.8000001907348632812 7.4000000953674316406 5.1999998092651367188 2.5999999046325683594 1.2000000476837158203 1.5 2.0999999046325683594 2.0999999046325683594 2.2000000476837158203 2.2000000476837158203 2.0999999046325683594 2.0999999046325683594 2.0999999046325683594 2.2999999523162841797 2.4000000953674316406 2.4000000953674316406 2.4000000953674316406 2.4000000953674316406 2.4000000953674316406 2.4000000953674316406 2.7000000476837158203 3.0999999046325683594 3.7999999523162841797 4.6999998092651367188 5.4000000953674316406 5.5 4.9000000953674316406 4.3000001907348632812 4.3000001907348632812 4.6999998092651367188 4.9000000953674316406 4.8000001907348632812 4.8000001907348632812 5.0999999046325683594 5.1999998092651367188 4.9000000953674316406 4.5999999046325683594 4.5 4.8000001907348632812 5.1999998092651367188 5.0999999046325683594 4.8000001907348632812 4.8000001907348632812 4.8000001907348632812 4.6999998092651367188 4.3000001907348632812 3.7999999523162841797 3.4000000953674316406 3 2.7999999523162841797 2.5999999046325683594 2.5999999046325683594 2.7000000476837158203 3.0999999046325683594 3.7999999523162841797 4.8000001907348632812 6.0999999046325683594 7.8000001907348632812 9.1000003814697265625 9.1999998092651367188 9 8.6000003814697265625 7.6999998092651367188 6.5999999046325683594 5.5999999046325683594 4.8000001907348632812 3.9000000953674316406 3.0999999046325683594 2.4000000953674316406 2.0999999046325683594 1.8999999761581420898 1.7999999523162841797 2.0999999046325683594 2.5 2.7000000476837158203 3.0999999046325683594 3.4000000953674316406 3.4000000953674316406 3.5999999046325683594 4 4.4000000953674316406 4.9000000953674316406 5.1999998092651367188 5.3000001907348632812 5.3000001907348632812 5 4.5999999046325683594 4.3000001907348632812 3.9000000953674316406 3.5999999046325683594 3.5 3.2999999523162841797 3.0999999046325683594 3 2.7999999523162841797 3.0999999046325683594 4 4.5999999046325683594 4.8000001907348632812 5.3000001907348632812 6.3000001907348632812 7.5999999046325683594 8.8999996185302734375 10.300000190734863281
 10.5 11.600000381469726562 12 11.399999618530273438 10.5 9 6.4000000953674316406 3.2000000476837158203 1.2999999523162841797 1.5 2.0999999046325683594 2.2000000476837158203 2.2000000476837158203 2.2999999523162841797 2.2000000476837158203 2.0999999046325683594 2.2000000476837158203 2.2999999523162841797 2.4000000953674316406 2.4000000953674316406 2.2999999523162841797 2.2999999523162841797 2.5 3.0999999046325683594 4 4.8000001907348632812 5.6999998092651367188 7 7.9000000953674316406 7.8000001907348632812 6.8000001907348632812 6 6.1999998092651367188 6.5 6.5999999046325683594 6.4000000953674316406 6.3000001907348632812 6.4000000953674316406 6.4000000953674316406 6 5.6999998092651367188 5.5 5.8000001907348632812 6.3000001907348632812 6.0999999046325683594 5.5 5 4.8000001907348632812 4.6999998092651367188 4.5 4 3.5999999046325683594 3.2999999523162841797 3.0999999046325683594 2.9000000953674316406 2.7999999523162841797 2.7000000476837158203 2.7000000476837158203 3 3.7999999523162841797 5 6.5 7.8000001907348632812 8.1000003814697265625 7.8000001907348632812 7.4000000953674316406 6.3000001907348632812 5.1999998092651367188 4.1999998092651367188 3.5999999046325683594 3 2.5 2 1.7999999523162841797 1.7000000476837158203 1.7000000476837158203 2 2.5 3 3.5 3.7000000476837158203 3.7000000476837158203 3.9000000953674316406 4.1999998092651367188 4.3000001907348632812 4.3000001907348632812 4.1999998092651367188 4.0999999046325683594 4 3.7999999523162841797 3.5 3.2999999523162841797 3.0999999046325683594 3.0999999046325683594 3.0999999046325683594 3.0999999046325683594 2.7000000476837158203 2.5 2.2999999523162841797 2.7999999523162841797 3.9000000953674316406 4.5999999046325683594 5 5.6999998092651367188 6.9000000953674316406 8.1000003814697265625 9.3000001907348632812 10.800000190734863281
 11.300000190734863281 12.800000190734863281 13.600000381469726562 13.199999809265136719 11.899999618530273438 10.5 8.1999998092651367188 4.5999999046325683594 1.8999999761581420898 1.3999999761581420898 1.8999999761581420898 2.2000000476837158203 2.2999999523162841797 2.2999999523162841797 2.2000000476837158203 2.2000000476837158203 2.2000000476837158203 2.2999999523162841797 2.2999999523162841797 2.2999999523162841797 2.2999999523162841797 2.2999999523162841797 2.7000000476837158203 3.9000000953674316406 5.5999999046325683594 6.5999999046325683594 7.6999998092651367188 9 10 9.8000001907348632812 8.6999998092651367188 8.1000003814697265625 8.1999998092651367188 8.3999996185302734375 8.3000001907348632812 8.1000003814697265625 7.9000000953674316406 7.5999999046325683594 7.1999998092651367188 6.6999998092651367188 6.4000000953674316406 6.3000001907348632812 6.5 7 7 6.4000000953674316406 5.5 4.9000000953674316406 4.8000001907348632812 4.6999998092651367188 4.4000000953674316406 4 3.7000000476837158203 3.4000000953674316406 3.2000000476837158203 3.0999999046325683594 3 2.7999999523162841797 2.7000000476837158203 3.0999999046325683594 4 5 6 6.4000000953674316406 6.1999998092651367188 5.6999998092651367188 4.8000001907348632812 3.9000000953674316406 3.2999999523162841797 2.9000000953674316406 2.5999999046325683594 2.2000000476837158203 1.8999999761581420898 1.7000000476837158203 1.7000000476837158203 1.7000000476837158203 2 2.5 3.2000000476837158203 3.9000000953674316406 4.3000001907348632812 4.5 4.8000001907348632812 5.0999999046325683594 4.9000000953674316406 4.6999998092651367188 4.4000000953674316406 4.1999998092651367188 4 3.7000000476837158203 3.5 3.4000000953674316406 3.4000000953674316406 3.4000000953674316406 3.4000000953674316406 3 2.5999999046325683594 2.0999999046325683594 2 2.5 3.5999999046325683594 4.5 5.1999998092651367188 6.1999998092651367188 7.4000000953674316406 8.6000003814697265625 9.8999996185302734375 11.399999618530273438
 12.5 13.800000190734863281 14.899999618530273438 14.5 13.300000190734863281 11.899999618530273438 10.100000381469726562 6.5999999046325683594 3 1.6000000238418579102 1.7999999523162841797 2.2000000476837158203 2.2999999523162841797 2.2999999523162841797 2.2000000476837158203 2.0999999046325683594 2.0999999046325683594 2.2000000476837158203 2.2000000476837158203 2.2000000476837158203 2.2999999523162841797 2.2999999523162841797 2.9000000953674316406 4.5999999046325683594 6.5 7.6999998092651367188 8.8000001907348632812 10.100000381469726562 11 10.800000190734863281 10 9.6999998092651367188 9.8999996185302734375 9.8999996185302734375 9.6999998092651367188 9.6999998092651367188 9.3999996185302734375 8.8000001907348632812 8.1999998092651367188 7.5 7.0999999046325683594 6.9000000953674316406 7 7.3000001907348632812 7.5 7.0999999046325683594 6.1999998092651367188 5.5 5.0999999046325683594 5.0999999046325683594 5 4.5999999046325683594 4.1999998092651367188 3.7999999523162841797 3.7000000476837158203 3.5999999046325683594 3.5 3.4000000953674316406 3.0999999046325683594 3.0999999046325683594 3.5 3.9000000953674316406 4.4000000953674316406 4.5999999046325683594 4.5 4.0999999046325683594 3.5 3.0999999046325683594 2.9000000953674316406 2.7999999523162841797 2.5 2.0999999046325683594 1.8999999761581420898 1.8999999761581420898 1.7999999523162841797 1.7999999523162841797 1.8999999761581420898 2.5999999046325683594 3.5999999046325683594 4.4000000953674316406 5 5.3000001907348632812 5.5999999046325683594 5.5999999046325683594 5.5999999046325683594 5.5 5.4000000953674316406 5.5 5.4000000953674316406 5 4.5 4.0999999046325683594 4 3.7999999523162841797 3.4000000953674316406 2.7999999523162841797 2.2000000476837158203 1.7999999523162841797 1.8999999761581420898 2.5 3.5 4.4000000953674316406 5.5 6.8000001907348632812 8.1000003814697265625 9.1999998092651367188 10.5 12
 13.300000190734863281 14.399999618530273438 15.300000190734863281 15.399999618530273438 14.399999618530273438 13.300000190734863281 11.800000190734863281 8.6000003814697265625 4.5999999046325683594 2.4000000953674316406 2 2.2999999523162841797 2.4000000953674316406 2.2999999523162841797 2.2999999523162841797 2.0999999046325683594 2.0999999046325683594 2.2000000476837158203 2.2000000476837158203 2.2000000476837158203 2.2999999523162841797 2.4000000953674316406 3.2999999523162841797 5 7 8.1999998092651367188 9.3999996185302734375 10.699999809265136719 11.399999618530273438 11.399999618530273438 10.899999618530273438 11 11.300000190734863281 11.199999809265136719 11 10.800000190734863281 10.399999618530273438 9.6999998092651367188 9 8.3000001907348632812 7.9000000953674316406 7.6999998092651367188 7.6999998092651367188 7.6999998092651367188 7.6999998092651367188 7.5999999046325683594 7 6.3000001907348632812 6 5.9000000953674316406 5.8000001907348632812 5.3000001907348632812 4.8000001907348632812 4.5 4.1999998092651367188 4 4 4.0999999046325683594 3.9000000953674316406 3.7000000476837158203 3.7000000476837158203 3.4000000953674316406 3.4000000953674316406 3.5 3.5 3.2999999523162841797 3.2000000476837158203 3.2000000476837158203 3.2000000476837158203 3.0999999046325683594 2.7000000476837158203 2.2999999523162841797 2.0999999046325683594 2.2000000476837158203 2.0999999046325683594 1.8999999761581420898 2 2.5999999046325683594 3.7000000476837158203 4.8000001907348632812 5.5999999046325683594 6.0999999046325683594 6.0999999046325683594 6.3000001907348632812 6.4000000953674316406 6.5 6.5999999046325683594 7 7.0999999046325683594 6.5 5.8000001907348632812 5.1999998092651367188 4.8000001907348632812 4.1999998092651367188 3.2999999523162841797 2.5 1.8999999761581420898 1.7000000476837158203 2.0999999046325683594 2.7999999523162841797 3.5999999046325683594 4.5999999046325683594 6 7.4000000953674316406 8.8000001907348632812 9.8999996185302734375 11.199999809265136719 12.399999618530273438
 13.699999809265136719 14.199999809265136719 15 15.5 15.300000190734863281 14.399999618530273438 13.100000381469726562 10.300000190734863281 6.5999999046325683594 3.7000000476837158203 2.5999999046325683594 2.4000000953674316406 2.4000000953674316406 2.2999999523162841797 2.2000000476837158203 2.0999999046325683594 2 2.0999999046325683594 2.2000000476837158203 2.2000000476837158203 2.2999999523162841797 2.7000000476837158203 3.7000000476837158203 5.5 7.3000001907348632812 8.6999998092651367188 10 11.100000381469726562 11.800000190734863281 11.899999618530273438 11.800000190734863281 12.100000381469726562 12.600000381469726562 12.399999618530273438 11.899999618530273438 11.399999618530273438 11 10.300000190734863281 9.6000003814697265625 9 8.6999998092651367188 8.6999998092651367188 8.6999998092651367188 8.5 8.3999996185302734375 8.1000003814697265625 7.5999999046325683594 7.0999999046325683594 6.8000001907348632812 6.5 6.3000001907348632812 6.1999998092651367188 6 5.8000001907348632812 5.3000001907348632812 5 5.0999999046325683594 5.3000001907348632812 5.0999999046325683594 4.9000000953674316406 4.4000000953674316406 3.7999999523162841797 3.2999999523162841797 3.2999999523162841797 3.2999999523162841797 3.5 3.7000000476837158203 3.9000000953674316406 4 3.9000000953674316406 3.5 2.9000000953674316406 2.5999999046325683594 2.5 2.4000000953674316406 2.0999999046325683594 2.0999999046325683594 2.5999999046325683594 3.5999999046325683594 4.9000000953674316406 5.8000001907348632812 6.4000000953674316406 6.8000001907348632812 7 7.3000001907348632812 7.4000000953674316406 7.5 7.6999998092651367188 7.8000001907348632812 7.4000000953674316406 6.6999998092651367188 6.1999998092651367188 5.6999998092651367188 4.9000000953674316406 3.7000000476837158203 2.7000000476837158203 2.0999999046325683594 2 2.5 3.2000000476837158203 3.9000000953674316406 4.9000000953674316406 6.3000001907348632812 7.8000001907348632812 9.1999998092651367188 10.399999618530273438 11.600000381469726562 12.800000190734863281
 13.600000381469726562 13.800000190734863281 14.300000190734863281 15.300000190734863281 15.399999618530273438 14.899999618530273438 13.600000381469726562 11.699999809265136719 8.6999998092651367188 5.5999999046325683594 3.4000000953674316406 2.5999999046325683594 2.4000000953674316406 2.2999999523162841797 2.0999999046325683594 1.8999999761581420898 1.7999999523162841797 1.8999999761581420898 2.0999999046325683594 2.2000000476837158203 2.2999999523162841797 2.9000000953674316406 4.1999998092651367188 5.8000001907348632812 7.5999999046325683594 9.1999998092651367188 10.699999809265136719 11.5 11.899999618530273438 12.300000190734863281 12.600000381469726562 13.199999809265136719 13.600000381469726562 13.300000190734863281 12.399999618530273438 11.800000190734863281 11.399999618530273438 10.899999618530273438 10.199999809265136719 9.8000001907348632812 9.6999998092651367188 9.8000001907348632812 9.6999998092651367188 9.5 9.1000003814697265625 8.6000003814697265625 8 7.5 7 6.6999998092651367188 6.5999999046325683594 6.9000000953674316406 7.3000001907348632812 7.4000000953674316406 7.1999998092651367188 6.9000000953674316406 7 7.0999999046325683594 6.9000000953674316406 6.5999999046325683594 6 5 4 3.5 3.7999999523162841797 4.1999998092651367188 4.5999999046325683594 4.8000001907348632812 4.9000000953674316406 4.8000001907348632812 4.4000000953674316406 3.7999999523162841797 3.2999999523162841797 3 2.7000000476837158203 2.5 2.5 2.7000000476837158203 3.5 4.6999998092651367188 5.8000001907348632812 6.5999999046325683594 7.1999998092651367188 7.6999998092651367188 8.1000003814697265625 8.3999996185302734375 8.5 8.3999996185302734375 8.1999998092651367188 7.9000000953674316406 7.4000000953674316406 6.8000001907348632812 6.1999998092651367188 5.4000000953674316406 4.0999999046325683594 3 2.5 2.5 3 3.5999999046325683594 4.1999998092651367188 5.1999998092651367188 6.5 7.9000000953674316406 9.3000001907348632812 10.699999809265136719 12.300000190734863281 13.699999809265136719
 13.699999809265136719 13.699999809265136719 14.300000190734863281 15 15.199999809265136719 14.699999809265136719 13.899999618530273438 12.899999618530273438 11 8.1000003814697265625 5 3.0999999046325683594 2.5 2.2000000476837158203 2 1.8999999761581420898 1.7999999523162841797 1.8999999761581420898 2.0999999046325683594 2.2000000476837158203 2.4000000953674316406 3.2000000476837158203 4.5999999046325683594 6.4000000953674316406 8.1999998092651367188 10 11.199999809265136719 11.699999809265136719 12.100000381469726562 12.699999809265136719 13.300000190734863281 14 14.399999618530273438 14.100000381469726562 13 12.199999809265136719 11.800000190734863281 11.399999618530273438 11 10.800000190734863281 10.699999809265136719 10.699999809265136719 10.5 10.199999809265136719 9.6999998092651367188 9.1000003814697265625 8.5 7.8000001907348632812 7.4000000953674316406 7.1999998092651367188 7.3000001907348632812 7.6999998092651367188 8.1999998092651367188 8.5 8.6999998092651367188 9 9 8.8000001907348632812 8.6000003814697265625 8.5 7.9000000953674316406 6.6999998092651367188 5.0999999046325683594 4.1999998092651367188 4.0999999046325683594 5 5.5999999046325683594 5.8000001907348632812 5.6999998092651367188 5.5999999046325683594 5.0999999046325683594 4.5 3.7999999523162841797 3.5 3.2000000476837158203 2.9000000953674316406 2.7999999523162841797 2.9000000953674316406 3.5 4.5999999046325683594 5.8000001907348632812 6.6999998092651367188 7.5999999046325683594 8.1999998092651367188 8.6999998092651367188 9.1000003814697265625 9.3999996185302734375 9.1999998092651367188 8.8999996185302734375 8.6999998092651367188 8.1999998092651367188 7.1999998092651367188 6.4000000953674316406 5.5 4.0999999046325683594 3 2.5999999046325683594 2.5999999046325683594 3.0999999046325683594 3.7999999523162841797 4.5 5.5999999046325683594 6.9000000953674316406 8.1000003814697265625 9.6000003814697265625 11.199999809265136719 13 14.800000190734863281
 14.199999809265136719 14.300000190734863281 14.699999809265136719 15 14.899999618530273438 14.5 14.199999809265136719 14 12.899999618530273438 10.399999618530273438 6.8000001907348632812 3.9000000953674316406 2.5999999046325683594 2.2000000476837158203 2.0999999046325683594 2 2 2 2.0999999046325683594 2.0999999046325683594 2.4000000953674316406 3.2999999523162841797 5 7.0999999046325683594 9.1000003814697265625 10.600000381469726562 11.199999809265136719 11.399999618530273438 12 13 13.800000190734863281 14.5 15 14.699999809265136719 13.600000381469726562 12.600000381469726562 12.100000381469726562 11.800000190734863281 11.600000381469726562 11.5 11.5 11.5 11.300000190734863281 10.800000190734863281 10.199999809265136719 9.5 8.8000001907348632812 8.1000003814697265625 7.9000000953674316406 8 8.3000001907348632812 8.5 8.8000001907348632812 9.1999998092651367188 9.8999996185302734375 10.5 10.5 10.100000381469726562 10.100000381469726562 9.8000001907348632812 9.1999998092651367188 7.9000000953674316406 6.4000000953674316406 5.0999999046325683594 5.0999999046325683594 6 7 7 6.6999998092651367188 6.4000000953674316406 5.8000001907348632812 5.0999999046325683594 4.5 4 3.7000000476837158203 3.2999999523162841797 3 3 3.5 4.5999999046325683594 5.9000000953674316406 6.9000000953674316406 7.6999998092651367188 8.5 9 9.3999996185302734375 9.8000001907348632812 9.8000001907348632812 9.6999998092651367188 9.5 8.8999996185302734375 7.8000001907348632812 6.8000001907348632812 5.6999998092651367188 4.1999998092651367188 3 2.5 2.5 3.0999999046325683594 4 5 6.1999998092651367188 7.5 8.6000003814697265625 9.8999996185302734375 11.399999618530273438 13.300000190734863281 15.399999618530273438
 14.899999618530273438 14.699999809265136719 14.800000190734863281 14.5 14.399999618530273438 14.300000190734863281 14.5 14.199999809265136719 13.300000190734863281 11.199999809265136719 7.9000000953674316406 4.5999999046325683594 2.7000000476837158203 2.0999999046325683594 2.0999999046325683594 2.0999999046325683594 2.0999999046325683594 2.0999999046325683594 2.0999999046325683594 2.0999999046325683594 2.2000000476837158203 3 4.9000000953674316406 7.5 9.6000003814697265625 10.699999809265136719 11.100000381469726562 11.199999809265136719 12.100000381469726562 13.399999618530273438 14.399999618530273438 15 15.800000190734863281 15.5 14.399999618530273438 13.100000381469726562 12.300000190734863281 12.100000381469726562 12.100000381469726562 11.899999618530273438 12.199999809265136719 12.300000190734863281 11.899999618530273438 11.399999618530273438 10.699999809265136719 9.8999996185302734375 9 8.3000001907348632812 8.1000003814697265625 8.3999996185302734375 8.6999998092651367188 9 9.3999996185302734375 10 10.899999618530273438 11.600000381469726562 11.600000381469726562 11.5 11.5 11.100000381469726562 10.100000381469726562 9 7.5999999046325683594 6.6999998092651367188 6.6999998092651367188 7.6999998092651367188 8.5 8.3999996185302734375 7.8000001907348632812 7.3000001907348632812 6.8000001907348632812 6.3000001907348632812 5.5 4.9000000953674316406 4.3000001907348632812 3.5999999046325683594 3.0999999046325683594 3.2000000476837158203 3.7000000476837158203 4.9000000953674316406 6.3000001907348632812 7.3000001907348632812 8 8.8000001907348632812 9.3999996185302734375 9.6000003814697265625 10.199999809265136719 10.5 10.600000381469726562 10.199999809265136719 9.5 8.3000001907348632812 7.0999999046325683594 6 4.5999999046325683594 3.2000000476837158203 2.5 2.7000000476837158203 3.5 4.6999998092651367188 5.8000001907348632812 6.8000001907348632812 8 9 10 11.199999809265136719 13.100000381469726562 15.399999618530273438
 15 14.699999809265136719 14.399999618530273438 14 13.800000190734863281 14 14.100000381469726562 13.800000190734863281 12.699999809265136719 11.300000190734863281 8.8000001907348632812 5.5999999046325683594 3.2000000476837158203 2.0999999046325683594 2 2.0999999046325683594 2.0999999046325683594 2 2 1.8999999761581420898 2 2.5999999046325683594 4.5 7 9.1999998092651367188 10.600000381469726562 11.399999618530273438 12 12.699999809265136719 13.800000190734863281 14.399999618530273438 15.100000381469726562 15.800000190734863281 16.100000381469726562 15.199999809265136719 14 12.899999618530273438 12.600000381469726562 12.300000190734863281 12 12.300000190734863281 12.699999809265136719 12.300000190734863281 11.800000190734863281 11.199999809265136719 10.399999618530273438 9.3999996185302734375 8.6000003814697265625 8.5 8.8000001907348632812 9.1999998092651367188 9.6000003814697265625 10.100000381469726562 10.699999809265136719 11.5 12.199999809265136719 12.399999618530273438 12.699999809265136719 12.899999618530273438 12.199999809265136719 11 9.8000001907348632812 8.8000001907348632812 8.1000003814697265625 8.1999998092651367188 8.8000001907348632812 9.6999998092651367188 9.3999996185302734375 8.6999998092651367188 8.1999998092651367188 7.8000001907348632812 7.5 7 6 4.9000000953674316406 3.7999999523162841797 3.2000000476837158203 3.2999999523162841797 4 5.4000000953674316406 7.0999999046325683594 8 8.5 9.3000001907348632812 10 10.399999618530273438 10.800000190734863281 11.300000190734863281 11.300000190734863281 10.800000190734863281 9.8000001907348632812 8.6000003814697265625 7.4000000953674316406 6.3000001907348632812 5.0999999046325683594 3.5999999046325683594 2.7999999523162841797 3.2000000476837158203 4.5 5.9000000953674316406 6.9000000953674316406 7.6999998092651367188 8.5 9.3999996185302734375 10.199999809265136719 11.199999809265136719 12.899999618530273438 15.100000381469726562
 15.199999809265136719 14.800000190734863281 14.199999809265136719 13.600000381469726562 13.399999618530273438 13.699999809265136719 13.800000190734863281 13.5 12.699999809265136719 11.600000381469726562 9.8000001907348632812 7 4 2.2000000476837158203 2 2.2000000476837158203 2.0999999046325683594 2.0999999046325683594 2 2.0999999046325683594 2 2.5 3.7999999523162841797 6 8.1999998092651367188 10 11.800000190734863281 13 13.5 14 14.199999809265136719 14.5 15.100000381469726562 15.5 15.399999618530273438 14.600000381469726562 13.899999618530273438 13.300000190734863281 12.699999809265136719 12.199999809265136719 12.5 12.800000190734863281 12.399999618530273438 12 11.600000381469726562 10.899999618530273438 10.100000381469726562 9.3999996185302734375 9.3000001907348632812 9.6000003814697265625 9.8999996185302734375 10.300000190734863281 10.699999809265136719 11.199999809265136719 11.899999618530273438 12.5 12.800000190734863281 13.199999809265136719 13.600000381469726562 13.100000381469726562 12 10.800000190734863281 9.8000001907348632812 9.1999998092651367188 9 9.6000003814697265625 10.399999618530273438 10.300000190734863281 9.5 9 8.8999996185302734375 8.6999998092651367188 8.1000003814697265625 7.1999998092651367188 5.8000001907348632812 4.1999998092651367188 3.4000000953674316406 3.5999999046325683594 4.5 6 7.8000001907348632812 8.6000003814697265625 9 9.8999996185302734375 10.800000190734863281 11.399999618530273438 11.699999809265136719 11.699999809265136719 11.600000381469726562 11 10.199999809265136719 9.1000003814697265625 7.9000000953674316406 6.9000000953674316406 5.8000001907348632812 4.1999998092651367188 3.2000000476837158203 3.7999999523162841797 5.4000000953674316406 7 8.1000003814697265625 8.8000001907348632812 9.3999996185302734375 10 10.600000381469726562 11.399999618530273438 12.899999618530273438 14.899999618530273438
 15.399999618530273438 15 14.300000190734863281 13.600000381469726562 13.399999618530273438 13.699999809265136719 13.800000190734863281 13.5 12.899999618530273438 12 10.600000381469726562 8 4.6999998092651367188 2.2999999523162841797 1.8999999761581420898 2.2000000476837158203 2.2000000476837158203 2.0999999046325683594 2 2 2.2000000476837158203 2.2999999523162841797 3.0999999046325683594 4.6999998092651367188 6.8000001907348632812 9 11.300000190734863281 12.800000190734863281 13.600000381469726562 14.199999809265136719 14.399999618530273438 14.399999618530273438 14.600000381469726562 15 15 14.800000190734863281 14.399999618530273438 14 13.399999618530273438 13.100000381469726562 13.199999809265136719 13.300000190734863281 12.899999618530273438 12.5 12 11.399999618530273438 10.800000190734863281 10.399999618530273438 10.5 10.699999809265136719 10.800000190734863281 10.899999618530273438 11.199999809265136719 11.699999809265136719 12.5 13 13.300000190734863281 13.800000190734863281 14.199999809265136719 14 13.199999809265136719 12.100000381469726562 11.100000381469726562 10.399999618530273438 10.100000381469726562 10.600000381469726562 11.300000190734863281 11.100000381469726562 10.100000381469726562 9.6000003814697265625 9.3999996185302734375 8.8000001907348632812 8.3000001907348632812 7.6999998092651367188 6.6999998092651367188 4.9000000953674316406 4 4.0999999046325683594 5 6.5999999046325683594 8.1999998092651367188 8.8999996185302734375 9.3000001907348632812 10.300000190734863281 11.399999618530273438 12.199999809265136719 12.399999618530273438 12.300000190734863281 11.899999618530273438 11.399999618530273438 10.800000190734863281 9.8999996185302734375 8.6999998092651367188 7.8000001907348632812 6.6999998092651367188 5.0999999046325683594 3.9000000953674316406 4.5999999046325683594 6.3000001907348632812 7.8000001907348632812 8.8999996185302734375 9.6000003814697265625 10.300000190734863281 10.899999618530273438 11.399999618530273438 12.100000381469726562 13.199999809265136719 14.800000190734863281
 15.5 15.100000381469726562 14.699999809265136719 14.100000381469726562 13.800000190734863281 14 13.899999618530273438 13.5 12.800000190734863281 12 11 8.8000001907348632812 5.1999998092651367188 2.4000000953674316406 1.7999999523162841797 2.2000000476837158203 2.2000000476837158203 2.0999999046325683594 2 2 2.0999999046325683594 2.2000000476837158203 2.5 3.7000000476837158203 5.5999999046325683594 7.9000000953674316406 10.199999809265136719 11.899999618530273438 13 13.899999618530273438 14.5 14.699999809265136719 15 15.199999809265136719 15.199999809265136719 15 14.600000381469726562 14.199999809265136719 14 13.800000190734863281 14 13.899999618530273438 13.5 13 12.399999618530273438 11.699999809265136719 11.399999618530273438 11.399999618530273438 11.699999809265136719 12 12 12 12.100000381469726562 12.699999809265136719 13.5 13.899999618530273438 14.199999809265136719 14.600000381469726562 15 15 14.5 13.600000381469726562 12.600000381469726562 11.800000190734863281 11.5 11.800000190734863281 12.199999809265136719 11.600000381469726562 10.399999618530273438 9.5 9.1000003814697265625 8.3999996185302734375 7.6999998092651367188 7.4000000953674316406 6.5999999046325683594 5.1999998092651367188 4.1999998092651367188 4.4000000953674316406 5.5 6.9000000953674316406 8.3000001907348632812 9.1999998092651367188 9.8999996185302734375 11 12.100000381469726562 12.800000190734863281 13 12.800000190734863281 12.399999618530273438 12 11.600000381469726562 10.800000190734863281 9.6000003814697265625 8.3999996185302734375 7.1999998092651367188 5.6999998092651367188 4.9000000953674316406 5.6999998092651367188 7.3000001907348632812 8.6999998092651367188 9.6000003814697265625 10.300000190734863281 11 11.800000190734863281 12.5 13.100000381469726562 13.699999809265136719 14.899999618530273438
 15.899999618530273438 15.699999809265136719 15.300000190734863281 14.899999618530273438 14.5 14.5 14.300000190734863281 13.600000381469726562 12.5 11.800000190734863281 11.100000381469726562 9.3000001907348632812 6.0999999046325683594 3 2 2.0999999046325683594 2.2000000476837158203 2 2 2 2.0999999046325683594 2.2000000476837158203 2.2999999523162841797 2.7999999523162841797 4.1999998092651367188 6.5999999046325683594 9.1999998092651367188 11.300000190734863281 12.600000381469726562 13.5 14.300000190734863281 15 15.5 15.800000190734863281 15.899999618530273438 15.5 15 14.699999809265136719 14.5 14.399999618530273438 14.300000190734863281 14.300000190734863281 14.100000381469726562 13.600000381469726562 13 12.399999618530273438 12.199999809265136719 12.300000190734863281 12.699999809265136719 13.100000381469726562 13.300000190734863281 13.300000190734863281 13.399999618530273438 13.899999618530273438 14.5 15 15.300000190734863281 15.800000190734863281 15.899999618530273438 15.899999618530273438 15.399999618530273438 14.699999809265136719 13.899999618530273438 13.100000381469726562 12.699999809265136719 12.600000381469726562 12.5 12 10.600000381469726562 9.6000003814697265625 8.8000001907348632812 8.1000003814697265625 7.5 7.1999998092651367188 6.3000001907348632812 4.9000000953674316406 4.1999998092651367188 4.6999998092651367188 6 7.3000001907348632812 8.5 9.5 10.600000381469726562 11.800000190734863281 12.699999809265136719 13.100000381469726562 13.199999809265136719 13.300000190734863281 13.100000381469726562 12.600000381469726562 12.199999809265136719 11.5 10.300000190734863281 8.8999996185302734375 7.5 6.3000001907348632812 6 7 8.5 9.8000001907348632812 10.600000381469726562 11.199999809265136719 12 12.699999809265136719 13.600000381469726562 14 14.300000190734863281 15
 16.600000381469726562 16.399999618530273438 16.100000381469726562 15.5 15 14.800000190734863281 14.600000381469726562 13.600000381469726562 12.100000381469726562 11.100000381469726562 10.600000381469726562 9.1999998092651367188 6.5999999046325683594 3.7999999523162841797 2.2999999523162841797 2.0999999046325683594 2.0999999046325683594 2 2 2 2 2.0999999046325683594 2.0999999046325683594 2.2000000476837158203 3 5.0999999046325683594 8.1999998092651367188 10.699999809265136719 12.300000190734863281 13.199999809265136719 14.100000381469726562 14.899999618530273438 15.399999618530273438 15.800000190734863281 16.200000762939453125 16.200000762939453125 15.699999809265136719 15.399999618530273438 15.199999809265136719 14.899999618530273438 14.899999618530273438 14.899999618530273438 14.699999809265136719 14.399999618530273438 14.100000381469726562 13.600000381469726562 13.300000190734863281 13.300000190734863281 13.5 13.899999618530273438 14.199999809265136719 14.399999618530273438 14.5 14.800000190734863281 15.399999618530273438 15.899999618530273438 16.399999618530273438 16.799999237060546875 16.899999618530273438 16.5 16 15.5 14.800000190734863281 14.100000381469726562 13.5 12.899999618530273438 12.600000381469726562 12 10.899999618530273438 9.6000003814697265625 8.8000001907348632812 8.3000001907348632812 8 7.5999999046325683594 6.4000000953674316406 5.0999999046325683594 4.4000000953674316406 5.1999998092651367188 6.5999999046325683594 8 9.1000003814697265625 10.100000381469726562 11.100000381469726562 12.199999809265136719 13 13.399999618530273438 13.5 13.800000190734863281 13.699999809265136719 13.300000190734863281 12.800000190734863281 12.100000381469726562 10.899999618530273438 9.3999996185302734375 7.9000000953674316406 6.9000000953674316406 7.0999999046325683594 8.1999998092651367188 9.6999998092651367188 10.899999618530273438 11.699999809265136719 12.300000190734863281 12.800000190734863281 13.5 14.399999618530273438 14.800000190734863281 14.899999618530273438 15.300000190734863281
 17.100000381469726562 17 16.5 15.800000190734863281 15 14.5 14.100000381469726562 12.899999618530273438 11.300000190734863281 10.300000190734863281 9.6999998092651367188 8.1999998092651367188 6.3000001907348632812 4.1999998092651367188 2.7000000476837158203 2.2000000476837158203 2.0999999046325683594 2 2 1.8999999761581420898 2 2 2 2 2.2999999523162841797 3.7999999523162841797 6.8000001907348632812 10 12.100000381469726562 13.199999809265136719 14 14.699999809265136719 15.100000381469726562 15.600000381469726562 16.5 16.799999237060546875 16.200000762939453125 15.699999809265136719 15.399999618530273438 15.300000190734863281 15.300000190734863281 15.300000190734863281 15.199999809265136719 15.100000381469726562 15.100000381469726562 14.899999618530273438 14.699999809265136719 14.600000381469726562 14.399999618530273438 14.699999809265136719 14.899999618530273438 15.300000190734863281 15.5 15.800000190734863281 16.200000762939453125 16.799999237060546875 17.399999618530273438 17.899999618530273438 17.799999237060546875 17.200000762939453125 16.700000762939453125 16.100000381469726562 15.5 14.699999809265136719 13.899999618530273438 13 12.5 11.800000190734863281 10.800000190734863281 9.6999998092651367188 8.8000001907348632812 8.3000001907348632812 8.1999998092651367188 7.8000001907348632812 6.6999998092651367188 5.5999999046325683594 5.3000001907348632812 5.9000000953674316406 7.3000001907348632812 8.6999998092651367188 9.8000001907348632812 10.699999809265136719 11.5 12.5 13.399999618530273438 13.800000190734863281 14.100000381469726562 14.399999618530273438 14.5 14.199999809265136719 13.800000190734863281 13.100000381469726562 11.899999618530273438 10.199999809265136719 8.3000001907348632812 7.4000000953674316406 8 9.3000001907348632812 10.899999618530273438 12 12.600000381469726562 12.899999618530273438 13.300000190734863281 13.800000190734863281 14.699999809265136719 15.199999809265136719 15.199999809265136719 15.600000381469726562
 17.700000762939453125 17.399999618530273438 16.799999237060546875 15.800000190734863281 14.899999618530273438 14.100000381469726562 13.5 12 10.399999618530273438 9.8000001907348632812 9.1000003814697265625 7.4000000953674316406 5.6999998092651367188 4.4000000953674316406 3.2999999523162841797 2.5999999046325683594 2 1.7999999523162841797 1.7999999523162841797 1.8999999761581420898 1.8999999761581420898 2 2 2 1.8999999761581420898 2.7999999523162841797 5.5 9.1999998092651367188 12.199999809265136719 13.899999618530273438 14.600000381469726562 15.100000381469726562 15.300000190734863281 15.800000190734863281 16.799999237060546875 17.100000381469726562 16.399999618530273438 15.699999809265136719 15.399999618530273438 15.399999618530273438 15.399999618530273438 15.5 15.5 15.600000381469726562 15.800000190734863281 15.899999618530273438 16 15.800000190734863281 15.5 15.300000190734863281 15.800000190734863281 16.299999237060546875 16.700000762939453125 16.899999618530273438 17.299999237060546875 17.799999237060546875 18.399999618530273438 18.700000762939453125 18.5 17.899999618530273438 17.299999237060546875 16.799999237060546875 16 15 13.899999618530273438 12.899999618530273438 12.199999809265136719 11.399999618530273438 10.399999618530273438 9.3999996185302734375 8.6999998092651367188 8.1999998092651367188 8 7.5 6.8000001907348632812 6.4000000953674316406 6.3000001907348632812 6.8000001907348632812 7.9000000953674316406 9.3999996185302734375 10.5 11.300000190734863281 12.199999809265136719 13.100000381469726562 13.899999618530273438 14.5 14.899999618530273438 15.300000190734863281 15.199999809265136719 15.100000381469726562 14.899999618530273438 14.300000190734863281 13 11 9 8.1999998092651367188 8.8000001907348632812 10.300000190734863281 11.800000190734863281 12.899999618530273438 13.199999809265136719 13.300000190734863281 13.399999618530273438 13.899999618530273438 14.800000190734863281 15.300000190734863281 15.199999809265136719 15.699999809265136719
 18.200000762939453125 17.799999237060546875 17 15.899999618530273438 15 14.399999618530273438 13.600000381469726562 12.100000381469726562 10.600000381469726562 10.199999809265136719 9.5 7.8000001907348632812 6.0999999046325683594 5.4000000953674316406 4.6999998092651367188 3.5999999046325683594 2.2000000476837158203 1.5 1.6000000238418579102 1.8999999761581420898 1.8999999761581420898 2 2 2 1.8999999761581420898 2.2999999523162841797 4.4000000953674316406 8.1999998092651367188 11.800000190734863281 14 14.800000190734863281 15 14.899999618530273438 15.300000190734863281 16.200000762939453125 16.700000762939453125 16.5 16.100000381469726562 15.800000190734863281 15.600000381469726562 15.5 15.600000381469726562 15.699999809265136719 16.100000381469726562 16.5 16.799999237060546875 16.899999618530273438 16.799999237060546875 16.399999618530273438 16.200000762939453125 16.700000762939453125 17.5 18 18.200000762939453125 18.399999618530273438 18.899999618530273438 19.299999237060546875 19.5 19.200000762939453125 18.5 18 17.200000762939453125 16.299999237060546875 15 13.899999618530273438 12.899999618530273438 12 11.199999809265136719 10.300000190734863281 9.3999996185302734375 8.8000001907348632812 8.3000001907348632812 8.1000003814697265625 7.6999998092651367188 7.1999998092651367188 7.0999999046325683594 7.0999999046325683594 7.4000000953674316406 8.3999996185302734375 9.6999998092651367188 10.899999618530273438 11.800000190734863281 12.899999618530273438 13.699999809265136719 14.5 15.300000190734863281 15.899999618530273438 16.200000762939453125 16 15.600000381469726562 15.300000190734863281 14.600000381469726562 13.399999618530273438 11.699999809265136719 9.6999998092651367188 9 9.5 10.800000190734863281 12.199999809265136719 13.199999809265136719 13.5 13.399999618530273438 13.5 13.899999618530273438 14.800000190734863281 15.399999618530273438 15.5 15.899999618530273438
 18.299999237060546875 17.799999237060546875 16.899999618530273438 15.899999618530273438 15.300000190734863281 15 14.5 13.300000190734863281 12.100000381469726562 11.5 10.699999809265136719 8.8999996185302734375 7.4000000953674316406 7 6.8000001907348632812 5.3000001907348632812 3 1.6000000238418579102 1.5 1.8999999761581420898 2 2 2 2.0999999046325683594 2 2.0999999046325683594 3.5999999046325683594 6.9000000953674316406 10.600000381469726562 13.199999809265136719 14.199999809265136719 14.199999809265136719 14 14.100000381469726562 15 15.800000190734863281 16.5 16.799999237060546875 16.600000381469726562 16.299999237060546875 16.100000381469726562 16.200000762939453125 16.5 17 17.5 17.799999237060546875 18.100000381469726562 17.899999618530273438 17.5 17.399999618530273438 18 18.799999237060546875 19.299999237060546875 19.399999618530273438 19.600000381469726562 20 20.399999618530273438 20.5 20.100000381469726562 19.399999618530273438 18.799999237060546875 18.200000762939453125 17.100000381469726562 15.800000190734863281 14.600000381469726562 13.5 12.300000190734863281 11.300000190734863281 10.5 9.6999998092651367188 9 8.5 8.3999996185302734375 8.1000003814697265625 7.6999998092651367188 7.6999998092651367188 7.5999999046325683594 7.8000001907348632812 8.8000001907348632812 10.100000381469726562 11.300000190734863281 12.300000190734863281 13.399999618530273438 14.399999618530273438 15.300000190734863281 16.200000762939453125 16.899999618530273438 17.100000381469726562 16.799999237060546875 16.200000762939453125 15.699999809265136719 14.899999618530273438 13.800000190734863281 12.100000381469726562 10.300000190734863281 9.3999996185302734375 9.6999998092651367188 10.699999809265136719 11.899999618530273438 12.899999618530273438 13.199999809265136719 13.199999809265136719 13.300000190734863281 13.699999809265136719 14.600000381469726562 15.300000190734863281 15.600000381469726562 16
 18.399999618530273438 17.700000762939453125 16.799999237060546875 16.100000381469726562 15.699999809265136719 15.5 15.100000381469726562 14.300000190734863281 13.5 12.899999618530273438 11.699999809265136719 10.100000381469726562 8.6000003814697265625 8.3999996185302734375 8.5 7.1999998092651367188 4.5 2.4000000953674316406 1.8999999761581420898 1.8999999761581420898 2 2 2.0999999046325683594 2.0999999046325683594 2 2 3 5.8000001907348632812 9.3999996185302734375 12.199999809265136719 13.399999618530273438 13.600000381469726562 13.300000190734863281 13.399999618530273438 14 15 16.200000762939453125 17 17 16.799999237060546875 16.799999237060546875 17.100000381469726562 17.600000381469726562 18.100000381469726562 18.600000381469726562 19 19.200000762939453125 19.100000381469726562 18.700000762939453125 18.899999618530273438 19.399999618530273438 20.100000381469726562 20.600000381469726562 20.799999237060546875 20.899999618530273438 21.200000762939453125 21.5 21.600000381469726562 21.100000381469726562 20.200000762939453125 19.600000381469726562 19.100000381469726562 18.200000762939453125 16.899999618530273438 15.600000381469726562 14.199999809265136719 12.800000190734863281 11.800000190734863281 11.100000381469726562 10.399999618530273438 9.3999996185302734375 8.6999998092651367188 8.6000003814697265625 8.3999996185302734375 8.1999998092651367188 8.1999998092651367188 8 8.3000001907348632812 9.3999996185302734375 10.699999809265136719 11.899999618530273438 12.899999618530273438 13.800000190734863281 14.899999618530273438 16 17 17.5 17.600000381469726562 17.299999237060546875 16.899999618530273438 16.299999237060546875 15.399999618530273438 14.199999809265136719 12.699999809265136719 10.899999618530273438 9.6999998092651367188 9.5 10 10.899999618530273438 11.899999618530273438 12.800000190734863281 13 13.100000381469726562 13.199999809265136719 14 14.800000190734863281 15.199999809265136719 15.600000381469726562
 18.799999237060546875 17.899999618530273438 16.899999618530273438 16.399999618530273438 16.100000381469726562 15.800000190734863281 15.5 15 14.5 13.600000381469726562 12.399999618530273438 11 9.8999996185302734375 9.5 9.8000001907348632812 8.8000001907348632812 6.3000001907348632812 3.9000000953674316406 2.5 2 2 2.0999999046325683594 2.0999999046325683594 2.0999999046325683594 2 1.8999999761581420898 2.5999999046325683594 5.0999999046325683594 8.6000003814697265625 11.399999618530273438 12.699999809265136719 13.300000190734863281 13.399999618530273438 13.199999809265136719 13.300000190734863281 14.100000381469726562 15.300000190734863281 16.399999618530273438 16.600000381469726562 16.700000762939453125 17 17.600000381469726562 18.299999237060546875 19 19.600000381469726562 20.100000381469726562 20.200000762939453125 20.100000381469726562 20.100000381469726562 20.399999618530273438 21 21.399999618530273438 21.799999237060546875 22.200000762939453125 22.200000762939453125 22.200000762939453125 22.200000762939453125 22.100000381469726562 21.399999618530273438 20.5 19.700000762939453125 19.100000381469726562 18.299999237060546875 17.100000381469726562 16 14.699999809265136719 13.300000190734863281 12.300000190734863281 11.800000190734863281 11.199999809265136719 10.100000381469726562 9.1000003814697265625 8.8000001907348632812 8.8000001907348632812 8.8000001907348632812 8.6999998092651367188 8.5 8.6999998092651367188 9.8000001907348632812 11.100000381469726562 12.5 13.5 14.300000190734863281 15.300000190734863281 16.399999618530273438 17.299999237060546875 17.799999237060546875 17.799999237060546875 17.600000381469726562 17.299999237060546875 16.700000762939453125 15.699999809265136719 14.600000381469726562 13.5 12 10.399999618530273438 9.5 9.3999996185302734375 10.199999809265136719 11.600000381469726562 12.699999809265136719 12.899999618530273438 12.300000190734863281 12.100000381469726562 12.800000190734863281 13.699999809265136719 14.300000190734863281 14.600000381469726562
 19.100000381469726562 18.100000381469726562 17.200000762939453125 16.700000762939453125 16.299999237060546875 16.100000381469726562 15.899999618530273438 15.600000381469726562 15.100000381469726562 14.199999809265136719 13.199999809265136719 12.300000190734863281 11.5 11 10.899999618530273438 10.199999809265136719 8 5.4000000953674316406 3.5 2.4000000953674316406 2 2.0999999046325683594 2.0999999046325683594 2.0999999046325683594 2 2 2.5 4.4000000953674316406 7.5999999046325683594 10.5 12.5 13.600000381469726562 13.899999618530273438 13.699999809265136719 13.5 13.699999809265136719 14.600000381469726562 15.600000381469726562 16 16.399999618530273438 16.899999618530273438 17.600000381469726562 18.399999618530273438 19.299999237060546875 20.200000762939453125 20.899999618530273438 21 21 21.299999237060546875 21.899999618530273438 22.399999618530273438 22.799999237060546875 23.100000381469726562 23.299999237060546875 23.200000762939453125 23 22.600000381469726562 22.299999237060546875 21.5 20.399999618530273438 19.600000381469726562 18.700000762939453125 17.799999237060546875 16.799999237060546875 16.100000381469726562 15.100000381469726562 13.800000190734863281 12.600000381469726562 12.100000381469726562 11.600000381469726562 10.5 9.5 9.3000001907348632812 9.1999998092651367188 9.3000001907348632812 9.1999998092651367188 8.8999996185302734375 9.1000003814697265625 10 11.300000190734863281 12.699999809265136719 13.899999618530273438 14.800000190734863281 15.600000381469726562 16.600000381469726562 17.5 18 18.100000381469726562 18 17.600000381469726562 16.799999237060546875 15.699999809265136719 14.899999618530273438 14.5 13.399999618530273438 11.5 9.8000001907348632812 9.3000001907348632812 10.100000381469726562 11.5 12.600000381469726562 12.300000190734863281 11.300000190734863281 10.699999809265136719 11.399999618530273438 12.5 13.100000381469726562 13.300000190734863281
 19.299999237060546875 18.200000762939453125 17.399999618530273438 16.799999237060546875 16.5 16.299999237060546875 16.200000762939453125 15.899999618530273438 15.399999618530273438 14.800000190734863281 14.199999809265136719 13.899999618530273438 13.399999618530273438 12.800000190734863281 12.300000190734863281 11.300000190734863281 9.1999998092651367188 6.6999998092651367188 4.5 2.9000000953674316406 2.0999999046325683594 2.0999999046325683594 2.0999999046325683594 2.2000000476837158203 2.0999999046325683594 2 2.2000000476837158203 3.5999999046325683594 6.4000000953674316406 9.8999996185302734375 12.899999618530273438 14.699999809265136719 15.100000381469726562 14.899999618530273438 14.600000381469726562 14.5 14.899999618530273438 15.600000381469726562 15.800000190734863281 16 16.600000381469726562 17.299999237060546875 18.200000762939453125 19.200000762939453125 20.399999618530273438 21.399999618530273438 21.700000762939453125 21.799999237060546875 22.399999618530273438 23.299999237060546875 23.799999237060546875 24.100000381469726562 24.299999237060546875 24.299999237060546875 24.200000762939453125 23.899999618530273438 23.399999618530273438 22.700000762939453125 21.700000762939453125 20.600000381469726562 19.600000381469726562 18.700000762939453125 17.600000381469726562 16.700000762939453125 16 15.100000381469726562 13.800000190734863281 12.600000381469726562 11.899999618530273438 11.5 10.699999809265136719 10 9.8000001907348632812 9.8000001907348632812 9.6999998092651367188 9.5 9.1000003814697265625 9.3000001907348632812 10.199999809265136719 11.5 12.899999618530273438 14 15 15.899999618530273438 16.799999237060546875 17.799999237060546875 18.399999618530273438 18.5 18.299999237060546875 17.799999237060546875 16.799999237060546875 15.800000190734863281 15.300000190734863281 15.199999809265136719 14.399999618530273438 12.399999618530273438 10.300000190734863281 9.5 10.100000381469726562 11.199999809265136719 11.899999618530273438 11.399999618530273438 10.399999618530273438 10.199999809265136719 10.899999618530273438 11.800000190734863281 12.199999809265136719 12.199999809265136719
 19.5 18.399999618530273438 17.600000381469726562 17 16.700000762939453125 16.399999618530273438 16 15.5 15.300000190734863281 15.300000190734863281 15.300000190734863281 15.300000190734863281 15.199999809265136719 14.699999809265136719 13.899999618530273438 12.399999618530273438 9.8999996185302734375 7.5 5.4000000953674316406 3.5 2.2999999523162841797 2 2.0999999046325683594 2.0999999046325683594 2.2000000476837158203 2 2 3 5.6999998092651367188 9.6999998092651367188 13.5 15.600000381469726562 16.100000381469726562 16 16.200000762939453125 16.399999618530273438 16.600000381469726562 16.700000762939453125 16.200000762939453125 15.899999618530273438 16.299999237060546875 17.299999237060546875 18.399999618530273438 19.399999618530273438 20.700000762939453125 21.799999237060546875 22.399999618530273438 22.5 23.299999237060546875 24.399999618530273438 25.200000762939453125 25.399999618530273438 25.5 25.399999618530273438 25.200000762939453125 24.899999618530273438 24.200000762939453125 23.399999618530273438 22.299999237060546875 21.100000381469726562 20 18.899999618530273438 17.700000762939453125 16.700000762939453125 15.899999618530273438 14.800000190734863281 13.5 12.399999618530273438 11.800000190734863281 11.399999618530273438 10.899999618530273438 10.5 10.5 10.600000381469726562 10.300000190734863281 9.6999998092651367188 9.1999998092651367188 9.6000003814697265625 10.600000381469726562 11.699999809265136719 12.899999618530273438 14 15.300000190734863281 16.299999237060546875 17.200000762939453125 18.100000381469726562 18.700000762939453125 18.600000381469726562 18.299999237060546875 17.799999237060546875 17.100000381469726562 16.100000381469726562 15.300000190734863281 14.699999809265136719 13.800000190734863281 12.100000381469726562 10.399999618530273438 9.6000003814697265625 10 10.800000190734863281 11.100000381469726562 10.5 10.100000381469726562 10.399999618530273438 10.899999618530273438 11.399999618530273438 11.5 11.300000190734863281
 20 18.899999618530273438 18 17.299999237060546875 16.899999618530273438 16.399999618530273438 15.699999809265136719 15.300000190734863281 15.399999618530273438 15.899999618530273438 16.299999237060546875 16.600000381469726562 16.899999618530273438 16.5 15.5 13.5 10.899999618530273438 8.1999998092651367188 6.3000001907348632812 4.3000001907348632812 2.7000000476837158203 2 2 2.0999999046325683594 2.0999999046325683594 2 2 2.7999999523162841797 5.1999998092651367188 9.1999998092651367188 13.100000381469726562 15.300000190734863281 16 16.700000762939453125 17.899999618530273438 18.799999237060546875 18.899999618530273438 18.399999618530273438 17.299999237060546875 16.399999618530273438 16.600000381469726562 17.700000762939453125 19 20.200000762939453125 21.399999618530273438 22.5 22.899999618530273438 23.299999237060546875 24.200000762939453125 25.5 26.100000381469726562 26.299999237060546875 26.299999237060546875 26.100000381469726562 25.799999237060546875 25.399999618530273438 24.799999237060546875 23.899999618530273438 22.899999618530273438 21.700000762939453125 20.5 19.299999237060546875 18 16.899999618530273438 15.899999618530273438 14.699999809265136719 13.5 12.5 12 11.800000190734863281 11.600000381469726562 11.399999618530273438 11.5 11.600000381469726562 11.199999809265136719 10.199999809265136719 9.5 10 11.100000381469726562 12.199999809265136719 13.199999809265136719 14.199999809265136719 15.399999618530273438 16.600000381469726562 17.5 18.299999237060546875 18.700000762939453125 18.5 18 17.700000762939453125 17.100000381469726562 16.100000381469726562 14.899999618530273438 13.899999618530273438 12.899999618530273438 11.600000381469726562 10.399999618530273438 10 10.300000190734863281 10.800000190734863281 10.800000190734863281 10 9.6999998092651367188 10.100000381469726562 10.399999618530273438 10.399999618530273438 10.199999809265136719 10.100000381469726562
 20.299999237060546875 19.399999618530273438 18.399999618530273438 17.600000381469726562 17 16.299999237060546875 15.699999809265136719 15.699999809265136719 16.100000381469726562 16.700000762939453125 17.299999237060546875 17.700000762939453125 18.100000381469726562 17.799999237060546875 16.600000381469726562 14.5 11.600000381469726562 9.1000003814697265625 7.0999999046325683594 5.1999998092651367188 3.2000000476837158203 2.2000000476837158203 1.8999999761581420898 2 2.0999999046325683594 2 2 2.7000000476837158203 4.8000001907348632812 8.3000001907348632812 12 14.399999618530273438 15.800000190734863281 17.299999237060546875 19.299999237060546875 20.700000762939453125 20.899999618530273438 20 18.700000762939453125 17.600000381469726562 17.5 18.299999237060546875 19.700000762939453125 21.100000381469726562 22.299999237060546875 23 23.600000381469726562 24.200000762939453125 25.200000762939453125 26.200000762939453125 26.600000381469726562 26.5 26.5 26.299999237060546875 26.100000381469726562 25.799999237060546875 25.200000762939453125 24.299999237060546875 23.200000762939453125 22.100000381469726562 20.899999618530273438 19.600000381469726562 18.299999237060546875 17.299999237060546875 16.200000762939453125 14.899999618530273438 13.699999809265136719 12.800000190734863281 12.300000190734863281 12.199999809265136719 12.100000381469726562 12.100000381469726562 12.199999809265136719 12.199999809265136719 11.699999809265136719 10.600000381469726562 9.8000001907348632812 10.199999809265136719 11.399999618530273438 12.699999809265136719 13.699999809265136719 14.5 15.600000381469726562 16.5 17.399999618530273438 18.100000381469726562 18.299999237060546875 17.899999618530273438 17.5 17.100000381469726562 16.799999237060546875 15.899999618530273438 15 14.100000381469726562 13.399999618530273438 12.399999618530273438 11.399999618530273438 11 11 11.100000381469726562 10.699999809265136719 9.8000001907348632812 9.3000001907348632812 9.3999996185302734375 9.3000001907348632812 9 8.8000001907348632812 8.8999996185302734375
 20.399999618530273438 19.700000762939453125 18.799999237060546875 17.899999618530273438 17.100000381469726562 16.299999237060546875 16 16.299999237060546875 16.899999618530273438 17.799999237060546875 18.5 18.700000762939453125 19.100000381469726562 18.899999618530273438 17.700000762939453125 15.5 12.699999809265136719 9.8999996185302734375 8 6.0999999046325683594 4 2.5 1.8999999761581420898 1.8999999761581420898 2 2 2.0999999046325683594 2.7000000476837158203 4.5999999046325683594 8 11.800000190734863281 14.5 16.299999237060546875 18.200000762939453125 20.200000762939453125 21.5 21.600000381469726562 21 20 19.100000381469726562 18.899999618530273438 19.399999618530273438 20.5 21.899999618530273438 23 23.799999237060546875 24.399999618530273438 25.200000762939453125 26.100000381469726562 26.799999237060546875 26.899999618530273438 26.799999237060546875 26.600000381469726562 26.299999237060546875 26.299999237060546875 26.200000762939453125 25.600000381469726562 24.600000381469726562 23.399999618530273438 22.299999237060546875 21.200000762939453125 20.100000381469726562 18.899999618530273438 17.799999237060546875 16.600000381469726562 15.300000190734863281 14.100000381469726562 13.199999809265136719 12.5 12.100000381469726562 12 12.100000381469726562 12.199999809265136719 12.199999809265136719 11.800000190734863281 10.899999618530273438 9.8999996185302734375 10.199999809265136719 11.600000381469726562 13.100000381469726562 14.199999809265136719 15 15.800000190734863281 16.5 17.100000381469726562 17.600000381469726562 17.5 17.200000762939453125 16.799999237060546875 16.799999237060546875 16.600000381469726562 16.299999237060546875 16 15.5 14.699999809265136719 13.600000381469726562 12.600000381469726562 12 11.600000381469726562 11.199999809265136719 10.699999809265136719 9.8999996185302734375 9.3000001907348632812 9 8.3000001907348632812 7.9000000953674316406 8.1000003814697265625 8.8999996185302734375
 20.600000381469726562 20 19.200000762939453125 18.399999618530273438 17.5 16.799999237060546875 16.5 16.899999618530273438 17.700000762939453125 19.200000762939453125 20 19.899999618530273438 20 20.200000762939453125 19.100000381469726562 17.100000381469726562 14.100000381469726562 11.100000381469726562 8.8999996185302734375 7 4.9000000953674316406 3.0999999046325683594 2.0999999046325683594 1.8999999761581420898 2 2 2 2.5999999046325683594 4.6999998092651367188 8.5 12.600000381469726562 15.5 17.299999237060546875 19.100000381469726562 20.5 21.399999618530273438 21.600000381469726562 21.299999237060546875 20.899999618530273438 20.600000381469726562 20.600000381469726562 20.799999237060546875 21.5 22.799999237060546875 24.100000381469726562 25 25.899999618530273438 26.5 27 27.299999237060546875 27.399999618530273438 27.200000762939453125 26.799999237060546875 26.200000762939453125 26.200000762939453125 26.299999237060546875 25.700000762939453125 24.600000381469726562 23.399999618530273438 22.399999618530273438 21.600000381469726562 20.5 19.200000762939453125 18 16.899999618530273438 15.699999809265136719 14.600000381469726562 13.699999809265136719 12.699999809265136719 11.699999809265136719 11.399999618530273438 11.800000190734863281 12.399999618530273438 12.399999618530273438 11.800000190734863281 10.899999618530273438 10 10.199999809265136719 11.600000381469726562 13.199999809265136719 14.399999618530273438 15.100000381469726562 15.800000190734863281 16.299999237060546875 16.700000762939453125 17 17 16.799999237060546875 16.899999618530273438 16.899999618530273438 17 17.100000381469726562 17.299999237060546875 16.799999237060546875 15.5 14.300000190734863281 13.300000190734863281 12.600000381469726562 12.100000381469726562 11.699999809265136719 11.5 11.199999809265136719 10.5 9.5 8.1999998092651367188 7.5 8.3000001907348632812 9.6999998092651367188
 21.100000381469726562 20.5 19.899999618530273438 19.200000762939453125 18.299999237060546875 17.5 17 17 17.899999618530273438 19.600000381469726562 20.700000762939453125 20.700000762939453125 21.100000381469726562 21.5 20.700000762939453125 18.399999618530273438 15.399999618530273438 12.199999809265136719 9.6999998092651367188 7.6999998092651367188 5.6999998092651367188 3.9000000953674316406 2.5 2 2 2 1.8999999761581420898 2.4000000953674316406 4.5999999046325683594 8.8000001907348632812 13.300000190734863281 16.399999618530273438 18.200000762939453125 19.799999237060546875 20.899999618530273438 21.700000762939453125 21.899999618530273438 22 22.100000381469726562 22.299999237060546875 22.399999618530273438 22.5 22.899999618530273438 24 25.5 26.799999237060546875 27.600000381469726562 27.799999237060546875 27.600000381469726562 27.700000762939453125 27.799999237060546875 27.600000381469726562 27 26.399999618530273438 26.399999618530273438 26.299999237060546875 25.700000762939453125 24.5 23.299999237060546875 22.299999237060546875 21.600000381469726562 20.600000381469726562 19.299999237060546875 17.899999618530273438 16.899999618530273438 16 15 14 12.800000190734863281 11.5 11.100000381469726562 11.699999809265136719 12.600000381469726562 12.699999809265136719 11.800000190734863281 10.800000190734863281 10.199999809265136719 10.699999809265136719 12.100000381469726562 13.600000381469726562 14.5 15.100000381469726562 15.600000381469726562 16 16.399999618530273438 16.899999618530273438 17.299999237060546875 17.700000762939453125 18 18 17.700000762939453125 17.799999237060546875 18.100000381469726562 17.700000762939453125 16.299999237060546875 14.899999618530273438 13.899999618530273438 13.300000190734863281 12.800000190734863281 12.600000381469726562 12.800000190734863281 13 12.699999809265136719 11.300000190734863281 9.3000001907348632812 8.3000001907348632812 8.8999996185302734375 10.5
 21.399999618530273438 21.200000762939453125 20.700000762939453125 20 19.100000381469726562 18.100000381469726562 17.299999237060546875 16.899999618530273438 17.299999237060546875 18.899999618530273438 20.200000762939453125 20.899999618530273438 21.799999237060546875 22.200000762939453125 21 18.600000381469726562 15.800000190734863281 12.800000190734863281 10.199999809265136719 7.9000000953674316406 6 4.1999998092651367188 2.7000000476837158203 2 1.8999999761581420898 2 1.8999999761581420898 2.2000000476837158203 4.1999998092651367188 8.3999996185302734375 13.300000190734863281 16.899999618530273438 19.100000381469726562 20.600000381469726562 21.799999237060546875 22.600000381469726562 23.299999237060546875 23.5 23.899999618530273438 24 24 23.899999618530273438 23.899999618530273438 25.100000381469726562 26.899999618530273438 28.100000381469726562 28.700000762939453125 28.399999618530273438 27.899999618530273438 27.700000762939453125 27.799999237060546875 27.899999618530273438 27.600000381469726562 27.200000762939453125 27.100000381469726562 26.799999237060546875 25.899999618530273438 24.600000381469726562 23.299999237060546875 22.299999237060546875 21.600000381469726562 20.600000381469726562 19.100000381469726562 17.799999237060546875 16.899999618530273438 16.200000762939453125 15.199999809265136719 14.199999809265136719 12.800000190734863281 11.699999809265136719 11.300000190734863281 11.699999809265136719 12.600000381469726562 12.699999809265136719 11.899999618530273438 11 11 11.300000190734863281 12.800000190734863281 14.100000381469726562 15 15.300000190734863281 15.600000381469726562 16.200000762939453125 16.799999237060546875 17.700000762939453125 18.600000381469726562 19.299999237060546875 19.799999237060546875 19.700000762939453125 19.100000381469726562 18.899999618530273438 18.899999618530273438 18.399999618530273438 17.100000381469726562 15.899999618530273438 14.699999809265136719 14 13.399999618530273438 13.100000381469726562 13.300000190734863281 13.5 13.399999618530273438 12.199999809265136719 10.399999618530273438 9.3999996185302734375 9.6999998092651367188 10.699999809265136719
 21.799999237060546875 21.899999618530273438 21.5 20.600000381469726562 19.5 18.299999237060546875 17.299999237060546875 16.600000381469726562 16.600000381469726562 17.5 18.899999618530273438 20 21 21.100000381469726562 19.600000381469726562 17.399999618530273438 15.199999809265136719 12.699999809265136719 10.100000381469726562 7.9000000953674316406 6 4.3000001907348632812 2.7000000476837158203 1.8999999761581420898 1.8999999761581420898 2 1.8999999761581420898 1.8999999761581420898 3.4000000953674316406 7.1999998092651367188 12.600000381469726562 17.100000381469726562 20 21.600000381469726562 22.600000381469726562 23.700000762939453125 24.5 25.100000381469726562 25.299999237060546875 25.200000762939453125 25.100000381469726562 24.700000762939453125 24.600000381469726562 25.700000762939453125 27.299999237060546875 28.5 28.700000762939453125 28.299999237060546875 27.700000762939453125 27.700000762939453125 28 28 27.799999237060546875 27.5 27.5 27 25.799999237060546875 24.5 23.5 22.799999237060546875 22 20.700000762939453125 19.100000381469726562 17.799999237060546875 17 16.399999618530273438 15.5 14.300000190734863281 12.899999618530273438 12.100000381469726562 11.800000190734863281 11.899999618530273438 12.300000190734863281 12.5 12 11.699999809265136719 11.399999618530273438 11.600000381469726562 13 14.800000190734863281 15.5 15.800000190734863281 16.299999237060546875 17 17.799999237060546875 18.799999237060546875 19.799999237060546875 20.5 20.799999237060546875 20.700000762939453125 20.100000381469726562 19.600000381469726562 19.299999237060546875 18.700000762939453125 17.700000762939453125 16.399999618530273438 15.199999809265136719 14.199999809265136719 13.699999809265136719 13.199999809265136719 12.899999618530273438 12.600000381469726562 12 11 10 9.8999996185302734375 10.399999618530273438 11.199999809265136719
 22.299999237060546875 22.5 21.899999618530273438 20.899999618530273438 19.5 18.200000762939453125 17.100000381469726562 16.299999237060546875 16 16.399999618530273438 17.200000762939453125 18 18.600000381469726562 18.600000381469726562 17.600000381469726562 15.899999618530273438 14.199999809265136719 12 9.5 7.5999999046325683594 6.0999999046325683594 4.4000000953674316406 2.7999999523162841797 2 2 2.0999999046325683594 2 1.7000000476837158203 2.5999999046325683594 6.1999998092651367188 11.699999809265136719 16.899999618530273438 20.299999237060546875 22.100000381469726562 23.200000762939453125 24.100000381469726562 24.899999618530273438 25.299999237060546875 25.299999237060546875 25.200000762939453125 25.299999237060546875 25.299999237060546875 25.200000762939453125 26.100000381469726562 27.799999237060546875 29.100000381469726562 29.5 28.799999237060546875 28.100000381469726562 28.200000762939453125 28.600000381469726562 28.5 27.799999237060546875 27.299999237060546875 27.299999237060546875 26.799999237060546875 25.5 24.200000762939453125 23.399999618530273438 23 22.299999237060546875 20.799999237060546875 19 17.600000381469726562 16.899999618530273438 16.399999618530273438 15.699999809265136719 14.5 13.100000381469726562 12.399999618530273438 12.300000190734863281 12.300000190734863281 12.399999618530273438 12.399999618530273438 12.199999809265136719 12 11.600000381469726562 11.899999618530273438 13.699999809265136719 15.5 16.299999237060546875 16.600000381469726562 17.200000762939453125 18 18.799999237060546875 19.700000762939453125 20.600000381469726562 21.200000762939453125 21.399999618530273438 21.100000381469726562 20.399999618530273438 19.799999237060546875 19.299999237060546875 18.799999237060546875 17.899999618530273438 16.700000762939453125 15.399999618530273438 14.600000381469726562 14 13.800000190734863281 13.300000190734863281 12.5 11.100000381469726562 9.6999998092651367188 9.1999998092651367188 9.8000001907348632812 10.800000190734863281 11.899999618530273438
 22.700000762939453125 22.600000381469726562 22.299999237060546875 21.399999618530273438 20.100000381469726562 18.5 17.200000762939453125 16.299999237060546875 15.699999809265136719 15.699999809265136719 15.800000190734863281 15.899999618530273438 16 16.200000762939453125 15.800000190734863281 14.600000381469726562 13 11 8.8999996185302734375 7.3000001907348632812 6.0999999046325683594 4.6999998092651367188 3.2000000476837158203 2.2000000476837158203 2.0999999046325683594 2.0999999046325683594 2.0999999046325683594 1.7000000476837158203 2.2999999523162841797 5.5 10.600000381469726562 15.600000381469726562 19.200000762939453125 21.399999618530273438 22.799999237060546875 23.799999237060546875 24.399999618530273438 24.600000381469726562 24.5 24.600000381469726562 25 25.299999237060546875 25.600000381469726562 26.799999237060546875 28.899999618530273438 30.799999237060546875 31.399999618530273438 30.399999618530273438 29.100000381469726562 29 29.299999237060546875 29.100000381469726562 27.899999618530273438 27.100000381469726562 26.899999618530273438 26.299999237060546875 24.899999618530273438 23.700000762939453125 22.799999237060546875 22.299999237060546875 21.5 20.200000762939453125 18.600000381469726562 17.399999618530273438 16.600000381469726562 16.200000762939453125 15.800000190734863281 14.800000190734863281 13.5 12.899999618530273438 12.800000190734863281 13 13 12.600000381469726562 12.100000381469726562 12.199999809265136719 12.5 13.399999618530273438 15.199999809265136719 16.5 16.899999618530273438 17.399999618530273438 18.299999237060546875 19.200000762939453125 20 20.700000762939453125 21.299999237060546875 21.799999237060546875 21.899999618530273438 21.5 20.700000762939453125 19.899999618530273438 19.200000762939453125 18.700000762939453125 18.100000381469726562 17.100000381469726562 16.100000381469726562 15.399999618530273438 15 14.699999809265136719 14.5 13.600000381469726562 11.899999618530273438 10 8.8000001907348632812 9.1999998092651367188 10.399999618530273438 12
 22.600000381469726562 22.700000762939453125 22.600000381469726562 22.200000762939453125 20.899999618530273438 19.200000762939453125 17.5 16.299999237060546875 15.600000381469726562 15.399999618530273438 15.600000381469726562 15.5 15.199999809265136719 15 14.399999618530273438 13.199999809265136719 11.800000190734863281 10.399999618530273438 8.8999996185302734375 7.4000000953674316406 6.1999998092651367188 4.8000001907348632812 3.4000000953674316406 2.4000000953674316406 2.2000000476837158203 2.2000000476837158203 2.2000000476837158203 1.8999999761581420898 2.4000000953674316406 4.8000001907348632812 8.8999996185302734375 13.300000190734863281 16.899999618530273438 19.600000381469726562 21.700000762939453125 23.200000762939453125 23.899999618530273438 24.299999237060546875 24.5 24.700000762939453125 25 25.200000762939453125 25.700000762939453125 27.299999237060546875 29.5 31.5 32.09999847412109375 30.899999618530273438 29.399999618530273438 28.799999237060546875 29 28.700000762939453125 27.799999237060546875 26.899999618530273438 26.399999618530273438 25.799999237060546875 24.600000381469726562 23.299999237060546875 22.299999237060546875 21.399999618530273438 20.399999618530273438 19.399999618530273438 18.399999618530273438 17.299999237060546875 16.5 16.100000381469726562 16 15.300000190734863281 14.399999618530273438 14 13.899999618530273438 13.899999618530273438 13.5 12.800000190734863281 12.300000190734863281 12.699999809265136719 13.899999618530273438 15.199999809265136719 16.700000762939453125 17.299999237060546875 17.700000762939453125 18.399999618530273438 19.5 20.399999618530273438 21.100000381469726562 21.5 21.899999618530273438 22.100000381469726562 22 21.5 20.899999618530273438 20 19.200000762939453125 18.600000381469726562 18.100000381469726562 17.5 16.700000762939453125 16.100000381469726562 15.5 15.199999809265136719 15 14.300000190734863281 12.800000190734863281 10.600000381469726562 8.6999998092651367188 8.5 9.8000001907348632812 11.5
 22.299999237060546875 22 22.100000381469726562 21.799999237060546875 20.899999618530273438 19.299999237060546875 17.799999237060546875 16.399999618530273438 15.300000190734863281 15.100000381469726562 15.600000381469726562 15.899999618530273438 15.699999809265136719 15 13.800000190734863281 12.300000190734863281 11.199999809265136719 10.399999618530273438 9.3000001907348632812 8 6.5 4.9000000953674316406 3.4000000953674316406 2.4000000953674316406 2.0999999046325683594 2.2000000476837158203 2.2000000476837158203 2.2000000476837158203 2.5 4.0999999046325683594 7.1999998092651367188 11.199999809265136719 15 18 20.600000381469726562 22.600000381469726562 23.700000762939453125 24.399999618530273438 24.899999618530273438 25.100000381469726562 25.200000762939453125 25.200000762939453125 25.899999618530273438 27.399999618530273438 29.100000381469726562 30.399999618530273438 30.600000381469726562 29.700000762939453125 28.700000762939453125 28.200000762939453125 28 27.799999237060546875 27.100000381469726562 26.200000762939453125 25.5 25.200000762939453125 24.5 23.399999618530273438 22.200000762939453125 21 20 19.100000381469726562 18.299999237060546875 17.399999618530273438 16.700000762939453125 16.299999237060546875 16 15.399999618530273438 14.899999618530273438 14.899999618530273438 14.899999618530273438 14.600000381469726562 13.899999618530273438 13.300000190734863281 13.199999809265136719 13.899999618530273438 15.100000381469726562 16.299999237060546875 17.399999618530273438 18 18.299999237060546875 19.200000762939453125 20.200000762939453125 21.200000762939453125 21.899999618530273438 22.100000381469726562 22.100000381469726562 22.100000381469726562 21.700000762939453125 21.299999237060546875 20.700000762939453125 20 19.200000762939453125 18.600000381469726562 18.100000381469726562 17.5 16.899999618530273438 16.299999237060546875 15.699999809265136719 15.399999618530273438 15 14.300000190734863281 12.899999618530273438 10.800000190734863281 8.6999998092651367188 8.3999996185302734375 9.6999998092651367188 11.300000190734863281
 22 21.700000762939453125 21.399999618530273438 21.299999237060546875 20.600000381469726562 19.600000381469726562 18.600000381469726562 17.200000762939453125 15.699999809265136719 15 15.399999618530273438 15.699999809265136719 15.899999618530273438 15.399999618530273438 14.100000381469726562 12.5 11.600000381469726562 11 10 8.6000003814697265625 7.0999999046325683594 5.3000001907348632812 3.2999999523162841797 2.0999999046325683594 1.8999999761581420898 2.0999999046325683594 2.2000000476837158203 2.2000000476837158203 2.5 3.5 6 9.8999996185302734375 13.800000190734863281 16.799999237060546875 19.600000381469726562 21.799999237060546875 23.200000762939453125 24.100000381469726562 24.899999618530273438 25.200000762939453125 25.200000762939453125 25.200000762939453125 26 27.299999237060546875 28.399999618530273438 29 28.899999618530273438 28.5 28.299999237060546875 27.799999237060546875 27.5 27.100000381469726562 26.600000381469726562 25.600000381469726562 24.799999237060546875 24.5 24.100000381469726562 23.200000762939453125 22.100000381469726562 21 19.799999237060546875 18.899999618530273438 18.200000762939453125 17.600000381469726562 17 16.899999618530273438 16.5 15.699999809265136719 15.100000381469726562 15.100000381469726562 15.199999809265136719 14.699999809265136719 14.300000190734863281 14.300000190734863281 14.899999618530273438 15.600000381469726562 16.299999237060546875 17 17.899999618530273438 18.5 18.899999618530273438 19.5 20.600000381469726562 21.5 22.200000762939453125 22.299999237060546875 22.200000762939453125 21.899999618530273438 21.399999618530273438 20.700000762939453125 20.200000762939453125 19.5 18.899999618530273438 18.399999618530273438 17.899999618530273438 17.5 17.200000762939453125 16.700000762939453125 16.200000762939453125 15.800000190734863281 15.199999809265136719 14.300000190734863281 12.899999618530273438 10.899999618530273438 9.1000003814697265625 8.8999996185302734375 10.100000381469726562 11.5
 22.200000762939453125 21.799999237060546875 21.600000381469726562 21.5 21 20.5 19.899999618530273438 18.600000381469726562 16.799999237060546875 15.800000190734863281 15.600000381469726562 15.899999618530273438 15.800000190734863281 15.600000381469726562 14.699999809265136719 13.399999618530273438 12.399999618530273438 11.800000190734863281 10.600000381469726562 9.1000003814697265625 7.6999998092651367188 5.8000001907348632812 3.5 2 1.8999999761581420898 2 2.0999999046325683594 2.0999999046325683594 2.2000000476837158203 2.9000000953674316406 5.0999999046325683594 8.8999996185302734375 12.699999809265136719 15.800000190734863281 18.600000381469726562 20.899999618530273438 22.399999618530273438 23.399999618530273438 24.399999618530273438 24.899999618530273438 25 25.200000762939453125 25.899999618530273438 26.899999618530273438 27.700000762939453125 27.899999618530273438 27.899999618530273438 28.100000381469726562 28.200000762939453125 27.799999237060546875 27.100000381469726562 26.899999618530273438 26.399999618530273438 25.700000762939453125 25 24.5 23.799999237060546875 22.899999618530273438 22 20.799999237060546875 19.5 18.399999618530273438 17.899999618530273438 17.5 17.299999237060546875 17.299999237060546875 17.200000762939453125 16.399999618530273438 15.399999618530273438 15.100000381469726562 15 14.699999809265136719 14.699999809265136719 15.600000381469726562 16.600000381469726562 17.100000381469726562 17.200000762939453125 17.399999618530273438 18 18.799999237060546875 19.299999237060546875 20.100000381469726562 20.899999618530273438 21.600000381469726562 22.100000381469726562 22.200000762939453125 22 21.700000762939453125 21 20.200000762939453125 19.5 18.899999618530273438 18.5 18.100000381469726562 17.799999237060546875 17.5 17.100000381469726562 16.5 16 15.600000381469726562 15.199999809265136719 14.300000190734863281 13.100000381469726562 11.399999618530273438 10 9.8000001907348632812 10.5 11.699999809265136719
 22.399999618530273438 22.299999237060546875 22.100000381469726562 22.100000381469726562 21.700000762939453125 21.299999237060546875 20.600000381469726562 19.600000381469726562 18.200000762939453125 17.100000381469726562 16.700000762939453125 16.600000381469726562 16.5 16 15.199999809265136719 14 13 12.300000190734863281 11 9.6000003814697265625 8.1999998092651367188 6.1999998092651367188 3.9000000953674316406 2.2999999523162841797 2 2.0999999046325683594 2.0999999046325683594 2.0999999046325683594 2.0999999046325683594 2.5999999046325683594 4.4000000953674316406 7.9000000953674316406 11.800000190734863281 15.100000381469726562 17.899999618530273438 20.200000762939453125 21.700000762939453125 22.899999618530273438 23.899999618530273438 24.5 24.799999237060546875 25.200000762939453125 25.700000762939453125 26.299999237060546875 26.799999237060546875 26.899999618530273438 27 27.600000381469726562 27.899999618530273438 27.200000762939453125 26.299999237060546875 25.899999618530273438 25.899999618530273438 25.700000762939453125 25.200000762939453125 24.299999237060546875 23.299999237060546875 22.700000762939453125 22 20.799999237060546875 19.299999237060546875 18.100000381469726562 17.600000381469726562 17.600000381469726562 17.5 17.5 17.5 16.799999237060546875 15.899999618530273438 15.300000190734863281 15.199999809265136719 15 15.5 16.600000381469726562 17.600000381469726562 17.899999618530273438 17.700000762939453125 17.5 18 18.899999618530273438 19.799999237060546875 20.5 21.100000381469726562 21.399999618530273438 21.799999237060546875 21.899999618530273438 21.700000762939453125 21.200000762939453125 20.5 19.700000762939453125 18.899999618530273438 18.399999618530273438 18.200000762939453125 17.799999237060546875 17.299999237060546875 17 16.399999618530273438 15.5 15 14.899999618530273438 14.399999618530273438 13.699999809265136719 12.800000190734863281 11.800000190734863281 10.800000190734863281 10.5 10.899999618530273438 12
 22.799999237060546875 22.799999237060546875 22.600000381469726562 22.399999618530273438 22.200000762939453125 21.700000762939453125 21.100000381469726562 20.200000762939453125 19.100000381469726562 18.299999237060546875 17.799999237060546875 17.600000381469726562 17.200000762939453125 16.600000381469726562 15.800000190734863281 14.699999809265136719 13.699999809265136719 12.800000190734863281 11.5 9.8999996185302734375 8.3000001907348632812 6.1999998092651367188 4 2.5 2.2000000476837158203 2.2000000476837158203 2.2000000476837158203 2.0999999046325683594 2.2000000476837158203 2.4000000953674316406 3.7999999523162841797 7 10.800000190734863281 14.399999618530273438 17.299999237060546875 19.5 21.200000762939453125 22.5 23.399999618530273438 24 24.399999618530273438 24.899999618530273438 25.399999618530273438 25.799999237060546875 26.299999237060546875 26.299999237060546875 26.299999237060546875 26.799999237060546875 27 26.200000762939453125 25.399999618530273438 25.200000762939453125 25 25.100000381469726562 24.700000762939453125 23.799999237060546875 23 22.799999237060546875 22.299999237060546875 21 19.5 18.399999618530273438 17.899999618530273438 17.799999237060546875 17.799999237060546875 17.799999237060546875 17.799999237060546875 17.200000762939453125 16.399999618530273438 16 15.899999618530273438 16 16.5 17.299999237060546875 17.799999237060546875 18 17.899999618530273438 18 18.399999618530273438 19.299999237060546875 20.100000381469726562 20.600000381469726562 20.899999618530273438 21.100000381469726562 21.5 21.600000381469726562 21.299999237060546875 20.600000381469726562 19.899999618530273438 19.100000381469726562 18.5 18.100000381469726562 17.799999237060546875 17.200000762939453125 16.399999618530273438 15.899999618530273438 15.300000190734863281 14.5 14 13.899999618530273438 13.300000190734863281 12.5 12 11.699999809265136719 11.5 11.5 11.899999618530273438 12.600000381469726562
 23.200000762939453125 23.100000381469726562 22.700000762939453125 22.5 22.200000762939453125 22.100000381469726562 21.700000762939453125 21 20.299999237060546875 19.600000381469726562 18.899999618530273438 18.299999237060546875 17.899999618530273438 17.200000762939453125 16.600000381469726562 15.5 14.600000381469726562 13.899999618530273438 12.600000381469726562 10.699999809265136719 8.5 6.1999998092651367188 4 2.5 2.2000000476837158203 2.2000000476837158203 2.2000000476837158203 2.2000000476837158203 2.2000000476837158203 2.4000000953674316406 3.5 6.3000001907348632812 10.199999809265136719 13.899999618530273438 16.600000381469726562 18.799999237060546875 20.799999237060546875 22.399999618530273438 23.399999618530273438 23.700000762939453125 24 24.399999618530273438 24.799999237060546875 25.200000762939453125 25.700000762939453125 25.899999618530273438 25.700000762939453125 25.799999237060546875 26 25.700000762939453125 25.299999237060546875 25 24.899999618530273438 24.700000762939453125 24.5 23.899999618530273438 23.600000381469726562 23.5 22.799999237060546875 21.600000381469726562 20.399999618530273438 19.5 18.799999237060546875 18.399999618530273438 18 18.100000381469726562 17.899999618530273438 17.399999618530273438 16.799999237060546875 16.700000762939453125 16.799999237060546875 17 17.399999618530273438 17.700000762939453125 17.899999618530273438 18 18.200000762939453125 18.399999618530273438 18.899999618530273438 19.799999237060546875 20.5 20.799999237060546875 20.700000762939453125 20.700000762939453125 21.100000381469726562 21.200000762939453125 20.600000381469726562 19.799999237060546875 19 18.299999237060546875 17.799999237060546875 17.5 17 16.200000762939453125 15.199999809265136719 14.699999809265136719 14.199999809265136719 13.5 13.199999809265136719 13 12.399999618530273438 11.699999809265136719 11.399999618530273438 11.5 12.100000381469726562 12.600000381469726562 13 13.5
 23.299999237060546875 22.899999618530273438 22.700000762939453125 22.399999618530273438 22.399999618530273438 22.399999618530273438 22.5 22 21.399999618530273438 20.700000762939453125 20 19.299999237060546875 18.600000381469726562 18 17.399999618530273438 16.299999237060546875 15.5 15.300000190734863281 14.100000381469726562 11.899999618530273438 9.1000003814697265625 6.4000000953674316406 4.0999999046325683594 2.5999999046325683594 2.2000000476837158203 2.2000000476837158203 2.2000000476837158203 2.2000000476837158203 2.2000000476837158203 2.2999999523162841797 3.2999999523162841797 6.0999999046325683594 10.100000381469726562 13.5 16.100000381469726562 18.399999618530273438 20.899999618530273438 22.700000762939453125 23.600000381469726562 23.700000762939453125 23.700000762939453125 23.899999618530273438 24 24.200000762939453125 24.799999237060546875 25.100000381469726562 25 25.100000381469726562 25.600000381469726562 25.799999237060546875 25.700000762939453125 25.399999618530273438 25.100000381469726562 25.100000381469726562 25 24.799999237060546875 24.600000381469726562 24.299999237060546875 23.399999618530273438 22.299999237060546875 21.399999618530273438 20.600000381469726562 19.899999618530273438 19 18.299999237060546875 18.200000762939453125 18 17.5 17.299999237060546875 17.399999618530273438 17.600000381469726562 17.899999618530273438 18.200000762939453125 18.100000381469726562 18 18.100000381469726562 18.399999618530273438 18.799999237060546875 19.200000762939453125 19.899999618530273438 20.700000762939453125 21 20.600000381469726562 20.200000762939453125 20.299999237060546875 20.299999237060546875 19.700000762939453125 18.899999618530273438 18.200000762939453125 17.5 16.899999618530273438 16.399999618530273438 16 15.199999809265136719 14.399999618530273438 13.899999618530273438 13.399999618530273438 12.800000190734863281 12.5 12.300000190734863281 12 11.699999809265136719 11.399999618530273438 11.600000381469726562 12.399999618530273438 13.5 14 14.300000190734863281
 22.899999618530273438 22.700000762939453125 22.600000381469726562 22.600000381469726562 22.600000381469726562 22.700000762939453125 22.700000762939453125 22.600000381469726562 22.100000381469726562 21.600000381469726562 21.200000762939453125 20.700000762939453125 20 19.299999237060546875 18.600000381469726562 17.600000381469726562 16.799999237060546875 16.5 15.100000381469726562 12.800000190734863281 10.100000381469726562 7.3000001907348632812 4.5999999046325683594 2.7000000476837158203 2.2000000476837158203 2.0999999046325683594 2.0999999046325683594 2.0999999046325683594 2.2000000476837158203 2.2000000476837158203 3.2000000476837158203 6.0999999046325683594 10 13.300000190734863281 15.899999618530273438 18.600000381469726562 21 22.799999237060546875 23.600000381469726562 23.600000381469726562 23.600000381469726562 23.399999618530273438 23.299999237060546875 23.5 23.799999237060546875 24.200000762939453125 24.299999237060546875 24.700000762939453125 25.299999237060546875 25.5 25.5 25.399999618530273438 25.399999618530273438 25.799999237060546875 25.899999618530273438 25.5 25.200000762939453125 24.600000381469726562 23.799999237060546875 22.799999237060546875 22 21.200000762939453125 20.600000381469726562 19.700000762939453125 18.700000762939453125 18.299999237060546875 18.200000762939453125 18 18.100000381469726562 18.200000762939453125 18.200000762939453125 18.399999618530273438 18.600000381469726562 18.5 18.200000762939453125 18.200000762939453125 18.600000381469726562 19.100000381469726562 19.399999618530273438 19.799999237060546875 20.5 20.899999618530273438 20.299999237060546875 19.700000762939453125 19.399999618530273438 19.200000762939453125 18.799999237060546875 18.299999237060546875 17.600000381469726562 16.799999237060546875 15.899999618530273438 15.399999618530273438 14.899999618530273438 14.399999618530273438 13.800000190734863281 13.300000190734863281 13 12.600000381469726562 12.300000190734863281 12.300000190734863281 12.100000381469726562 12.100000381469726562 12 12.100000381469726562 13.100000381469726562 14.399999618530273438 15 15.300000190734863281
 22.5 22.600000381469726562 22.600000381469726562 22.700000762939453125 22.799999237060546875 22.899999618530273438 22.899999618530273438 22.899999618530273438 22.700000762939453125 22.5 22.399999618530273438 22.200000762939453125 21.600000381469726562 20.700000762939453125 19.899999618530273438 19.100000381469726562 18.299999237060546875 17.200000762939453125 15.5 13.399999618530273438 11.100000381469726562 8.3999996185302734375 5.4000000953674316406 2.9000000953674316406 2 2.0999999046325683594 2.0999999046325683594 2.0999999046325683594 2.0999999046325683594 2.0999999046325683594 3.0999999046325683594 6 10 13.199999809265136719 16 18.899999618530273438 21 22.299999237060546875 23.200000762939453125 23.700000762939453125 23.899999618530273438 23.5 22.899999618530273438 22.600000381469726562 22.799999237060546875 23.100000381469726562 23.5 24.100000381469726562 24.5 24.600000381469726562 24.600000381469726562 24.700000762939453125 25.100000381469726562 25.899999618530273438 26.100000381469726562 25.600000381469726562 25.100000381469726562 24.5 23.799999237060546875 23.200000762939453125 22.5 21.700000762939453125 21 20.299999237060546875 19.399999618530273438 18.799999237060546875 18.600000381469726562 18.700000762939453125 19 19 18.899999618530273438 18.899999618530273438 19.100000381469726562 19 18.5 18.399999618530273438 18.700000762939453125 19.100000381469726562 19.200000762939453125 19.399999618530273438 19.899999618530273438 20.399999618530273438 20 19.200000762939453125 18.799999237060546875 18.399999618530273438 18.100000381469726562 17.600000381469726562 16.899999618530273438 16 15.199999809265136719 14.699999809265136719 14.199999809265136719 13.699999809265136719 13.300000190734863281 13.100000381469726562 13.100000381469726562 12.899999618530273438 12.699999809265136719 12.5 12.5 12.699999809265136719 12.899999618530273438 13.300000190734863281 14.300000190734863281 15.399999618530273438 16 16.299999237060546875
 22 22.299999237060546875 22.600000381469726562 22.799999237060546875 23.100000381469726562 23.200000762939453125 23.200000762939453125 23.299999237060546875 23.299999237060546875 23.200000762939453125 23.299999237060546875 23.100000381469726562 22.600000381469726562 21.600000381469726562 20.799999237060546875 20.100000381469726562 19.100000381469726562 17.799999237060546875 15.899999618530273438 14.100000381469726562 12.100000381469726562 9.5 6.0999999046325683594 3.2000000476837158203 2 2 2.0999999046325683594 2.0999999046325683594 2.0999999046325683594 2.2000000476837158203 3.2999999523162841797 6.4000000953674316406 10.100000381469726562 13.300000190734863281 16.200000762939453125 19 20.700000762939453125 21.700000762939453125 22.799999237060546875 23.799999237060546875 24.299999237060546875 23.700000762939453125 22.600000381469726562 22 21.700000762939453125 22 22.399999618530273438 23 23.399999618530273438 23.5 23.5 23.899999618530273438 24.5 25.200000762939453125 25.5 25.5 25.200000762939453125 24.5 23.799999237060546875 23.399999618530273438 23.100000381469726562 22.299999237060546875 21.5 20.799999237060546875 20 19.299999237060546875 19.100000381469726562 19.299999237060546875 19.700000762939453125 19.799999237060546875 19.600000381469726562 19.600000381469726562 19.700000762939453125 19.600000381469726562 19 18.700000762939453125 18.700000762939453125 18.899999618530273438 18.899999618530273438 19 19.5 19.899999618530273438 19.5 18.799999237060546875 18.200000762939453125 17.799999237060546875 17.399999618530273438 16.799999237060546875 16 15.199999809265136719 14.5 14.300000190734863281 14 13.5 13.399999618530273438 13.399999618530273438 13.600000381469726562 13.600000381469726562 13.5 13.199999809265136719 13.100000381469726562 13.300000190734863281 13.800000190734863281 14.300000190734863281 15.199999809265136719 16 16.700000762939453125 17.100000381469726562
 21.299999237060546875 21.799999237060546875 22.200000762939453125 22.700000762939453125 23.100000381469726562 23.200000762939453125 23.299999237060546875 23.399999618530273438 23.399999618530273438 23.399999618530273438 23.299999237060546875 23.200000762939453125 23 22.399999618530273438 21.600000381469726562 20.799999237060546875 19.799999237060546875 18.5 16.899999618530273438 15.199999809265136719 13 10.399999618530273438 6.8000001907348632812 3.5 2 1.8999999761581420898 2 2.0999999046325683594 2.2000000476837158203 2.5 4.1999998092651367188 7.5 11.100000381469726562 13.899999618530273438 16.600000381469726562 19.299999237060546875 20.700000762939453125 21.5 22.5 23.600000381469726562 24.100000381469726562 23.399999618530273438 22.299999237060546875 21.899999618530273438 21.899999618530273438 21.700000762939453125 21.799999237060546875 22.100000381469726562 22.600000381469726562 22.5 22.600000381469726562 23.5 24.5 24.700000762939453125 24.799999237060546875 25.200000762939453125 25.5 24.899999618530273438 24.100000381469726562 23.700000762939453125 23.299999237060546875 22.700000762939453125 21.799999237060546875 21.299999237060546875 20.5 19.899999618530273438 19.5 19.600000381469726562 19.899999618530273438 20.100000381469726562 20.100000381469726562 20.100000381469726562 20.299999237060546875 20.100000381469726562 19.600000381469726562 19 18.700000762939453125 18.700000762939453125 18.700000762939453125 18.799999237060546875 19.100000381469726562 19.200000762939453125 18.799999237060546875 18 17.600000381469726562 17.200000762939453125 16.700000762939453125 16.100000381469726562 15.300000190734863281 14.699999809265136719 14.399999618530273438 14.399999618530273438 14.100000381469726562 13.600000381469726562 13.600000381469726562 13.800000190734863281 14 14.300000190734863281 14.399999618530273438 14.100000381469726562 13.899999618530273438 14 14.399999618530273438 14.899999618530273438 15.600000381469726562 16.399999618530273438 17.200000762939453125 18
 20.700000762939453125 21.200000762939453125 21.700000762939453125 22.200000762939453125 22.799999237060546875 23.100000381469726562 23.100000381469726562 23.100000381469726562 23.200000762939453125 23.200000762939453125 23.100000381469726562 23.100000381469726562 23.299999237060546875 23 22.200000762939453125 21.5 20.600000381469726562 19.299999237060546875 17.700000762939453125 15.800000190734863281 13.5 10.800000190734863281 7.1999998092651367188 3.5999999046325683594 2 1.8999999761581420898 2 2 2.0999999046325683594 3 5.3000001907348632812 9 12.5 15 17.200000762939453125 19.5 20.799999237060546875 21.600000381469726562 22.299999237060546875 22.899999618530273438 22.899999618530273438 22 21.200000762939453125 21.399999618530273438 22 22.100000381469726562 21.899999618530273438 22 22.299999237060546875 22.299999237060546875 22.5 24 25.200000762939453125 25 24.399999618530273438 24.799999237060546875 25.5 25.200000762939453125 24.5 23.799999237060546875 23.200000762939453125 22.600000381469726562 22.100000381469726562 21.700000762939453125 21.200000762939453125 20.399999618530273438 19.799999237060546875 19.899999618530273438 20.100000381469726562 20.299999237060546875 20.399999618530273438 20.399999618530273438 20.700000762939453125 20.700000762939453125 20.100000381469726562 19.5 19 18.799999237060546875 18.600000381469726562 18.5 18.299999237060546875 18.100000381469726562 17.700000762939453125 17.200000762939453125 16.899999618530273438 16.600000381469726562 16.100000381469726562 15.5 15 14.800000190734863281 14.800000190734863281 15 14.600000381469726562 13.899999618530273438 13.800000190734863281 14 14.199999809265136719 14.5 14.800000190734863281 14.800000190734863281 14.699999809265136719 14.899999618530273438 15.300000190734863281 15.800000190734863281 16.399999618530273438 17.200000762939453125 18.200000762939453125 18.899999618530273438
 20.399999618530273438 21 21.299999237060546875 21.700000762939453125 22.399999618530273438 22.799999237060546875 22.899999618530273438 23 23.200000762939453125 23.299999237060546875 23.299999237060546875 23.399999618530273438 23.5 23.200000762939453125 22.299999237060546875 21.700000762939453125 21 19.700000762939453125 18.100000381469726562 16.299999237060546875 14.199999809265136719 11.5 7.5999999046325683594 3.9000000953674316406 2.2000000476837158203 2 2.0999999046325683594 2 2.4000000953674316406 3.9000000953674316406 6.8000001907348632812 10.5 13.699999809265136719 16 17.600000381469726562 19.200000762939453125 20.399999618530273438 21.100000381469726562 21.200000762939453125 21.200000762939453125 20.799999237060546875 19.600000381469726562 18.899999618530273438 19.399999618530273438 20.600000381469726562 21.399999618530273438 21.5 21.600000381469726562 22.200000762939453125 22.600000381469726562 23.5 25.299999237060546875 26.5 25.799999237060546875 24.600000381469726562 24.5 25 25.200000762939453125 24.700000762939453125 23.799999237060546875 22.899999618530273438 22.5 22.100000381469726562 21.799999237060546875 21.5 20.899999618530273438 20.299999237060546875 20.299999237060546875 20.399999618530273438 20.600000381469726562 20.700000762939453125 20.799999237060546875 21.100000381469726562 21.100000381469726562 20.600000381469726562 20 19.600000381469726562 19.200000762939453125 18.799999237060546875 18 17.299999237060546875 17 16.700000762939453125 16.5 16.299999237060546875 16 15.5 15.100000381469726562 15 15.100000381469726562 15.399999618530273438 15.600000381469726562 15.199999809265136719 14.5 14.199999809265136719 14.399999618530273438 14.600000381469726562 14.899999618530273438 15.199999809265136719 15.300000190734863281 15.399999618530273438 15.899999618530273438 16.399999618530273438 17 17.600000381469726562 18.5 19.399999618530273438 20
 20.299999237060546875 20.899999618530273438 21.200000762939453125 21.399999618530273438 21.899999618530273438 22.299999237060546875 22.600000381469726562 23 23.5 23.700000762939453125 23.700000762939453125 23.700000762939453125 23.5 23.100000381469726562 22.399999618530273438 22 21.399999618530273438 20 18.5 17 15.199999809265136719 12.399999618530273438 8.3000001907348632812 4.1999998092651367188 2.0999999046325683594 2 2.2000000476837158203 2.2000000476837158203 3.0999999046325683594 5.4000000953674316406 8.6000003814697265625 11.899999618530273438 14.600000381469726562 16.299999237060546875 17.299999237060546875 18.200000762939453125 19 19.399999618530273438 18.899999618530273438 18.399999618530273438 17.799999237060546875 17.100000381469726562 16.600000381469726562 17.100000381469726562 18.299999237060546875 19.700000762939453125 20.299999237060546875 20.700000762939453125 21.600000381469726562 22.799999237060546875 24.200000762939453125 26 26.899999618530273438 26.299999237060546875 25.100000381469726562 24.5 24.700000762939453125 24.899999618530273438 24.799999237060546875 23.799999237060546875 22.799999237060546875 22.399999618530273438 22.100000381469726562 21.700000762939453125 21.600000381469726562 21.200000762939453125 20.899999618530273438 21 21.100000381469726562 21 21.100000381469726562 21.299999237060546875 21.5 21.299999237060546875 20.799999237060546875 20.399999618530273438 20.100000381469726562 19.700000762939453125 18.899999618530273438 17.799999237060546875 16.799999237060546875 16.299999237060546875 16.100000381469726562 15.899999618530273438 15.699999809265136719 15.399999618530273438 15 14.899999618530273438 15 15.300000190734863281 15.699999809265136719 15.800000190734863281 15.5 15.100000381469726562 14.899999618530273438 15 15.100000381469726562 15.300000190734863281 15.699999809265136719 16 16.399999618530273438 16.899999618530273438 17.399999618530273438 18.100000381469726562 18.899999618530273438 19.700000762939453125 20.5 21.100000381469726562
 20.100000381469726562 20.799999237060546875 21 21.200000762939453125 21.5 21.799999237060546875 22.100000381469726562 22.600000381469726562 23 23.100000381469726562 23.200000762939453125 23.100000381469726562 23 22.799999237060546875 22.600000381469726562 22.299999237060546875 21.700000762939453125 20.200000762939453125 18.700000762939453125 17.299999237060546875 15.5 12.600000381469726562 8.3999996185302734375 4.0999999046325683594 2 1.7999999523162841797 2.2000000476837158203 2.4000000953674316406 3.7999999523162841797 6.9000000953674316406 10.399999618530273438 13.100000381469726562 15.100000381469726562 16 16.299999237060546875 16.399999618530273438 16.899999618530273438 17 16.399999618530273438 15.600000381469726562 15.199999809265136719 14.899999618530273438 14.899999618530273438 15.399999618530273438 16.399999618530273438 17.600000381469726562 18.5 19.299999237060546875 20.700000762939453125 22.399999618530273438 24 25.600000381469726562 26.600000381469726562 26.399999618530273438 25.399999618530273438 24.700000762939453125 24.600000381469726562 24.799999237060546875 24.700000762939453125 24 23 22.5 22 21.700000762939453125 21.5 21.399999618530273438 21.399999618530273438 21.700000762939453125 21.600000381469726562 21.299999237060546875 21.399999618530273438 21.600000381469726562 21.799999237060546875 21.5 20.899999618530273438 20.399999618530273438 20 19.5 18.600000381469726562 17.600000381469726562 16.799999237060546875 16.399999618530273438 16 15.399999618530273438 15.100000381469726562 14.800000190734863281 14.800000190734863281 14.899999618530273438 15.100000381469726562 15.399999618530273438 15.600000381469726562 15.699999809265136719 15.600000381469726562 15.600000381469726562 15.600000381469726562 15.600000381469726562 15.600000381469726562 15.800000190734863281 16.299999237060546875 16.899999618530273438 17.299999237060546875 17.700000762939453125 18.200000762939453125 18.899999618530273438 19.799999237060546875 20.600000381469726562 21.399999618530273438 22.299999237060546875
 20.100000381469726562 20.899999618530273438 21.100000381469726562 21.399999618530273438 21.5 21.5 21.600000381469726562 21.600000381469726562 21.600000381469726562 21.600000381469726562 21.700000762939453125 22 22.100000381469726562 22.299999237060546875 22.299999237060546875 22.200000762939453125 21.5 20.100000381469726562 18.700000762939453125 17.399999618530273438 15.300000190734863281 12.300000190734863281 8 4 2 1.8999999761581420898 2.0999999046325683594 2.5999999046325683594 4.5 8 11.600000381469726562 14 15.100000381469726562 15 14.600000381469726562 14.199999809265136719 14.199999809265136719 14.399999618530273438 13.899999618530273438 13.300000190734863281 13 13 13.399999618530273438 14 14.800000190734863281 15.899999618530273438 17 18.399999618530273438 20.100000381469726562 21.799999237060546875 23.399999618530273438 25 26.100000381469726562 26 25.100000381469726562 24.5 24.399999618530273438 24.5 24.600000381469726562 24.100000381469726562 23.299999237060546875 22.5 22.100000381469726562 21.799999237060546875 21.700000762939453125 21.600000381469726562 21.799999237060546875 22.200000762939453125 22 21.700000762939453125 21.700000762939453125 21.799999237060546875 22 21.799999237060546875 21.200000762939453125 20.399999618530273438 19.600000381469726562 18.799999237060546875 18 17.200000762939453125 16.899999618530273438 16.600000381469726562 16.100000381469726562 15.399999618530273438 14.800000190734863281 14.600000381469726562 14.899999618530273438 15.300000190734863281 15.399999618530273438 15.399999618530273438 15.600000381469726562 15.699999809265136719 15.800000190734863281 15.899999618530273438 16 16.100000381469726562 16.100000381469726562 16.399999618530273438 17.100000381469726562 17.799999237060546875 18.100000381469726562 18.399999618530273438 18.899999618530273438 19.700000762939453125 20.600000381469726562 21.299999237060546875 22.100000381469726562 22.899999618530273438
 20.200000762939453125 20.899999618530273438 21.200000762939453125 21.399999618530273438 21.5 21.299999237060546875 21 20.600000381469726562 20.100000381469726562 19.899999618530273438 20.100000381469726562 20.5 20.899999618530273438 21.100000381469726562 21.299999237060546875 21.299999237060546875 20.899999618530273438 19.899999618530273438 18.799999237060546875 17.399999618530273438 15.399999618530273438 12 7.5999999046325683594 3.7000000476837158203 2.0999999046325683594 1.8999999761581420898 2.2000000476837158203 3.0999999046325683594 5.3000001907348632812 8.8000001907348632812 12.100000381469726562 13.899999618530273438 14.199999809265136719 13.600000381469726562 12.699999809265136719 12 11.699999809265136719 11.699999809265136719 11.399999618530273438 11 10.899999618530273438 11.100000381469726562 11.699999809265136719 12.600000381469726562 13.5 14.800000190734863281 16.5 18.399999618530273438 20.100000381469726562 21.399999618530273438 22.5 23.899999618530273438 25 25 24.399999618530273438 24 24 24 24 23.700000762939453125 23.100000381469726562 22.5 22.299999237060546875 22.299999237060546875 22.399999618530273438 22.399999618530273438 22.5 22.600000381469726562 22.399999618530273438 22 22 22.100000381469726562 22.200000762939453125 22.100000381469726562 21.5 20.5 19.299999237060546875 18.299999237060546875 17.399999618530273438 16.799999237060546875 16.5 16.399999618530273438 16.100000381469726562 15.600000381469726562 15.100000381469726562 14.899999618530273438 15.199999809265136719 15.800000190734863281 16.100000381469726562 16 16 16.200000762939453125 16.299999237060546875 16.5 16.5 16.600000381469726562 16.899999618530273438 17.5 18.399999618530273438 19 19.200000762939453125 19.299999237060546875 19.700000762939453125 20.600000381469726562 21.5 22.100000381469726562 22.399999618530273438 22.899999618530273438
 19.899999618530273438 20.5 20.799999237060546875 20.899999618530273438 20.899999618530273438 20.799999237060546875 20.399999618530273438 19.600000381469726562 18.799999237060546875 18.399999618530273438 18.399999618530273438 18.799999237060546875 19.200000762939453125 19.700000762939453125 20 20.5 20.600000381469726562 20.100000381469726562 19.100000381469726562 17.700000762939453125 15.399999618530273438 11.5 6.9000000953674316406 3.4000000953674316406 2.2000000476837158203 2.0999999046325683594 2.5 3.5999999046325683594 5.9000000953674316406 9.1999998092651367188 12 13.199999809265136719 12.899999618530273438 11.899999618530273438 10.800000190734863281 10 9.3999996185302734375 9.3000001907348632812 9.1000003814697265625 8.8000001907348632812 8.8000001907348632812 9.1999998092651367188 10.100000381469726562 11.300000190734863281 12.5 14.100000381469726562 16.200000762939453125 18.5 20.200000762939453125 21.100000381469726562 21.700000762939453125 22.600000381469726562 23.5 23.700000762939453125 23.600000381469726562 23.5 23.600000381469726562 23.299999237060546875 23.100000381469726562 22.899999618530273438 22.600000381469726562 22.399999618530273438 22.600000381469726562 22.899999618530273438 23.200000762939453125 23.200000762939453125 23.100000381469726562 22.899999618530273438 22.600000381469726562 22.399999618530273438 22.299999237060546875 22.200000762939453125 22.200000762939453125 22 21.399999618530273438 20.299999237060546875 19 18 17.200000762939453125 16.399999618530273438 15.899999618530273438 15.899999618530273438 16 15.899999618530273438 15.600000381469726562 15.399999618530273438 15.699999809265136719 16.5 17.200000762939453125 17.299999237060546875 17.100000381469726562 17.100000381469726562 17.299999237060546875 17.299999237060546875 17.100000381469726562 17.299999237060546875 17.700000762939453125 18.5 19.399999618530273438 20 20.299999237060546875 20.600000381469726562 21.100000381469726562 22 22.799999237060546875 23.200000762939453125 23.200000762939453125 23.399999618530273438
 19.799999237060546875 20.299999237060546875 20.399999618530273438 20.399999618530273438 20.399999618530273438 20.299999237060546875 19.700000762939453125 18.700000762939453125 17.600000381469726562 16.899999618530273438 16.399999618530273438 16.600000381469726562 17.299999237060546875 18 18.799999237060546875 19.700000762939453125 20.299999237060546875 20.100000381469726562 19.299999237060546875 17.799999237060546875 14.899999618530273438 10.399999618530273438 5.9000000953674316406 3.0999999046325683594 2.2999999523162841797 2.2000000476837158203 2.5999999046325683594 3.5999999046325683594 5.8000001907348632812 8.8000001907348632812 11.5 12.300000190734863281 11.5 10.300000190734863281 9.1000003814697265625 8.1000003814697265625 7.5999999046325683594 7.5 7.5999999046325683594 7.4000000953674316406 7.1999998092651367188 7.5 8.5 10.100000381469726562 11.800000190734863281 13.699999809265136719 15.899999618530273438 18.200000762939453125 20 20.899999618530273438 21.299999237060546875 21.600000381469726562 22.100000381469726562 22.600000381469726562 22.799999237060546875 23 23 22.700000762939453125 22.299999237060546875 22.200000762939453125 22.399999618530273438 22.799999237060546875 23.200000762939453125 23.5 23.600000381469726562 23.600000381469726562 23.399999618530273438 23.100000381469726562 22.899999618530273438 22.899999618530273438 22.600000381469726562 22.299999237060546875 22 21.5 20.799999237060546875 19.700000762939453125 18.399999618530273438 17.600000381469726562 16.899999618530273438 16.200000762939453125 15.699999809265136719 15.800000190734863281 16 15.899999618530273438 15.899999618530273438 15.800000190734863281 16.200000762939453125 17.200000762939453125 18.100000381469726562 18.5 18.299999237060546875 18.299999237060546875 18.200000762939453125 18.100000381469726562 17.899999618530273438 18 18.700000762939453125 19.299999237060546875 20.100000381469726562 20.700000762939453125 21.299999237060546875 21.899999618530273438 22.799999237060546875 23.700000762939453125 24.299999237060546875 24.600000381469726562 24.399999618530273438 24.5
 19.399999618530273438 20.100000381469726562 20.299999237060546875 20.100000381469726562 19.899999618530273438 19.700000762939453125 19.200000762939453125 18.100000381469726562 16.899999618530273438 15.800000190734863281 14.899999618530273438 14.600000381469726562 15 15.800000190734863281 17 18.100000381469726562 19 19.100000381469726562 18.5 17 13.600000381469726562 8.6000003814697265625 4.5 2.5999999046325683594 2.2000000476837158203 2.2000000476837158203 2.4000000953674316406 3.2000000476837158203 4.9000000953674316406 7.5999999046325683594 9.6999998092651367188 10.199999809265136719 9.6000003814697265625 8.6000003814697265625 7.5 6.8000001907348632812 6.3000001907348632812 6.1999998092651367188 6.4000000953674316406 6.4000000953674316406 6.0999999046325683594 6.0999999046325683594 7.4000000953674316406 9.3999996185302734375 11.300000190734863281 13.199999809265136719 15.399999618530273438 18 20.100000381469726562 21 21 20.899999618530273438 21.399999618530273438 21.899999618530273438 22.100000381469726562 22.299999237060546875 22.299999237060546875 21.899999618530273438 21.600000381469726562 21.899999618530273438 22.700000762939453125 23.5 23.899999618530273438 23.899999618530273438 23.799999237060546875 23.700000762939453125 23.600000381469726562 23.5 23.299999237060546875 23.200000762939453125 23 22.399999618530273438 21.799999237060546875 21 20.100000381469726562 19 17.899999618530273438 17.299999237060546875 16.899999618530273438 16.399999618530273438 16.100000381469726562 16.200000762939453125 16.299999237060546875 16.200000762939453125 16.200000762939453125 16.399999618530273438 16.799999237060546875 17.600000381469726562 18.600000381469726562 19.100000381469726562 19.399999618530273438 19.299999237060546875 19.100000381469726562 18.899999618530273438 18.899999618530273438 19.299999237060546875 19.799999237060546875 20.299999237060546875 20.899999618530273438 21.799999237060546875 22.200000762939453125 22.799999237060546875 23.700000762939453125 24.700000762939453125 25.299999237060546875 25.600000381469726562 25.600000381469726562 25.100000381469726562
 18.600000381469726562 19.5 20 19.600000381469726562 19.100000381469726562 18.700000762939453125 18.399999618530273438 17.700000762939453125 16.5 15.300000190734863281 14.199999809265136719 13.5 13.5 13.800000190734863281 14.600000381469726562 15.699999809265136719 16.700000762939453125 17.200000762939453125 16.899999618530273438 15.399999618530273438 11.600000381469726562 6.6999998092651367188 3.2999999523162841797 2.2999999523162841797 2.0999999046325683594 2.2000000476837158203 2.4000000953674316406 3.0999999046325683594 4.4000000953674316406 6 7.0999999046325683594 7.5 7.4000000953674316406 6.9000000953674316406 6.1999998092651367188 5.6999998092651367188 5.1999998092651367188 4.6999998092651367188 4.9000000953674316406 5.1999998092651367188 5.0999999046325683594 5.3000001907348632812 6.6999998092651367188 9 11.100000381469726562 12.800000190734863281 15 17.700000762939453125 19.899999618530273438 20.700000762939453125 20.5 20.5 21 21.700000762939453125 21.799999237060546875 21.700000762939453125 21.399999618530273438 21.100000381469726562 21.299999237060546875 22.5 23.600000381469726562 24.200000762939453125 24.200000762939453125 24 23.799999237060546875 23.799999237060546875 23.799999237060546875 23.799999237060546875 23.700000762939453125 23.600000381469726562 23.299999237060546875 22.700000762939453125 21.799999237060546875 20.700000762939453125 19.700000762939453125 18.600000381469726562 17.700000762939453125 17.200000762939453125 16.799999237060546875 16.399999618530273438 16.200000762939453125 16.600000381469726562 16.899999618530273438 16.600000381469726562 16.700000762939453125 17 17.5 18 18.799999237060546875 19.700000762939453125 20.299999237060546875 20.5 20.299999237060546875 20.100000381469726562 20.299999237060546875 20.799999237060546875 21.299999237060546875 21.700000762939453125 22.399999618530273438 23.100000381469726562 23.299999237060546875 23.200000762939453125 23.700000762939453125 24.5 25.399999618530273438 26.100000381469726562 25.899999618530273438 24.899999618530273438
 17.5 18.5 19.100000381469726562 18.899999618530273438 18.100000381469726562 17.399999618530273438 17.299999237060546875 17 16 14.800000190734863281 13.699999809265136719 13.100000381469726562 12.699999809265136719 12.5 12.699999809265136719 13.399999618530273438 14.5 15.300000190734863281 15.199999809265136719 13.399999618530273438 9.6000003814697265625 5.1999998092651367188 2.5999999046325683594 2 2.2000000476837158203 2.4000000953674316406 3 3.9000000953674316406 4.9000000953674316406 5.6999998092651367188 6.0999999046325683594 6.1999998092651367188 6.5999999046325683594 6.4000000953674316406 5.8000001907348632812 5.1999998092651367188 4.4000000953674316406 3.5999999046325683594 3.7999999523162841797 4.3000001907348632812 4.5 5.0999999046325683594 6.5 8.6000003814697265625 10.600000381469726562 12.399999618530273438 14.5 16.899999618530273438 18.700000762939453125 19.399999618530273438 19.299999237060546875 19.399999618530273438 20.100000381469726562 20.899999618530273438 21.100000381469726562 20.799999237060546875 20.5 20.799999237060546875 21.799999237060546875 23.299999237060546875 24.299999237060546875 24.399999618530273438 24.200000762939453125 24 23.899999618530273438 23.899999618530273438 24.100000381469726562 24.200000762939453125 24.100000381469726562 24 23.700000762939453125 23 22 20.799999237060546875 19.5 18.5 17.700000762939453125 17.299999237060546875 16.899999618530273438 16.399999618530273438 16.200000762939453125 16.700000762939453125 17.5 17.5 17.399999618530273438 17.899999618530273438 18.5 18.899999618530273438 19.5 20.399999618530273438 21.399999618530273438 21.700000762939453125 21.600000381469726562 21.600000381469726562 21.799999237060546875 22.299999237060546875 22.5 23 23.600000381469726562 23.799999237060546875 23.399999618530273438 23 23.100000381469726562 23.799999237060546875 24.799999237060546875 25.700000762939453125 25.5 24.299999237060546875
 15.699999809265136719 16.5 17.399999618530273438 17.600000381469726562 16.899999618530273438 16 15.600000381469726562 15.600000381469726562 15 14 13 12.399999618530273438 12 11.399999618530273438 11.100000381469726562 11.399999618530273438 12.300000190734863281 13.399999618530273438 13.199999809265136719 11.100000381469726562 7.5999999046325683594 4.1999998092651367188 2.2999999523162841797 2 2.4000000953674316406 3.2000000476837158203 4.6999998092651367188 6.0999999046325683594 6.8000001907348632812 7.0999999046325683594 7.0999999046325683594 7.0999999046325683594 7.3000001907348632812 7.0999999046325683594 6.0999999046325683594 5.1999998092651367188 4.4000000953674316406 3.7999999523162841797 4 4.4000000953674316406 4.9000000953674316406 5.6999998092651367188 6.8000001907348632812 8.3000001907348632812 10.100000381469726562 11.899999618530273438 13.899999618530273438 15.699999809265136719 17 17.5 17.700000762939453125 17.899999618530273438 18.600000381469726562 19.399999618530273438 19.799999237060546875 20 20.5 21.299999237060546875 22.600000381469726562 23.899999618530273438 24.299999237060546875 24.100000381469726562 24 24 24.100000381469726562 24.200000762939453125 24.200000762939453125 24.299999237060546875 24.299999237060546875 24.299999237060546875 24 23.100000381469726562 22 20.799999237060546875 19.600000381469726562 18.5 17.799999237060546875 17.399999618530273438 17.100000381469726562 16.799999237060546875 16.600000381469726562 17.100000381469726562 18.200000762939453125 18.700000762939453125 18.799999237060546875 19.299999237060546875 20 20.299999237060546875 20.5 21.299999237060546875 22.200000762939453125 22.799999237060546875 22.799999237060546875 22.700000762939453125 22.899999618530273438 23.100000381469726562 23.5 24 24.399999618530273438 24.200000762939453125 23.5 23 22.899999618530273438 23.299999237060546875 24.200000762939453125 25.100000381469726562 25.100000381469726562 24.200000762939453125
 14.100000381469726562 14.600000381469726562 15.399999618530273438 15.699999809265136719 15 13.899999618530273438 13.300000190734863281 13.199999809265136719 13.199999809265136719 12.899999618530273438 12.399999618530273438 11.800000190734863281 11.100000381469726562 10.100000381469726562 9.5 9.6000003814697265625 10.300000190734863281 11 10.5 8.3999996185302734375 5.5999999046325683594 3.4000000953674316406 2.2999999523162841797 2.2999999523162841797 2.9000000953674316406 4.5 6.8000001907348632812 8.5 9 8.8999996185302734375 8.8999996185302734375 8.6999998092651367188 8.5 7.9000000953674316406 6.6999998092651367188 5.6999998092651367188 5.0999999046325683594 4.9000000953674316406 5.0999999046325683594 5.4000000953674316406 5.9000000953674316406 6.5 7.4000000953674316406 8.3999996185302734375 9.6999998092651367188 11.199999809265136719 12.800000190734863281 14.300000190734863281 15.100000381469726562 15.699999809265136719 16.200000762939453125 16.700000762939453125 17.299999237060546875 18.200000762939453125 19.200000762939453125 20.100000381469726562 21.100000381469726562 22.200000762939453125 23.100000381469726562 23.799999237060546875 23.899999618530273438 23.700000762939453125 23.700000762939453125 24 24.299999237060546875 24.5 24.399999618530273438 24.299999237060546875 24.5 24.399999618530273438 24 23 21.899999618530273438 20.799999237060546875 19.700000762939453125 18.600000381469726562 17.799999237060546875 17.299999237060546875 17.200000762939453125 17.5 17.799999237060546875 18.200000762939453125 19.100000381469726562 20 20.299999237060546875 20.700000762939453125 21.299999237060546875 21.700000762939453125 21.700000762939453125 22.299999237060546875 23.200000762939453125 23.600000381469726562 23.700000762939453125 23.600000381469726562 23.700000762939453125 23.799999237060546875 24.100000381469726562 24.700000762939453125 25.100000381469726562 25 24.299999237060546875 23.5 23.100000381469726562 23.299999237060546875 23.899999618530273438 24.600000381469726562 24.600000381469726562 24.100000381469726562
 14.199999809265136719 14.199999809265136719 14.300000190734863281 14.100000381469726562 13.300000190734863281 12.199999809265136719 11.399999618530273438 11.199999809265136719 11.5 12 11.899999618530273438 11.5 10.600000381469726562 9.1999998092651367188 8.1000003814697265625 7.6999998092651367188 7.8000001907348632812 8 7.3000001907348632812 5.6999998092651367188 3.9000000953674316406 2.7000000476837158203 2.2999999523162841797 2.5 3.5 5.6999998092651367188 8.1999998092651367188 10 10.399999618530273438 10.5 10.5 10.199999809265136719 9.6000003814697265625 8.8000001907348632812 7.8000001907348632812 6.8000001907348632812 6.5 6.5 6.8000001907348632812 6.8000001907348632812 6.8000001907348632812 7.1999998092651367188 7.9000000953674316406 8.8000001907348632812 9.8000001907348632812 10.699999809265136719 11.800000190734863281 12.800000190734863281 13.699999809265136719 14.5 15.399999618530273438 15.899999618530273438 16.600000381469726562 17.799999237060546875 19.200000762939453125 20.399999618530273438 21.5 22.299999237060546875 22.899999618530273438 23.299999237060546875 23.5 23.5 23.600000381469726562 23.899999618530273438 24.299999237060546875 24.600000381469726562 24.700000762939453125 24.600000381469726562 24.700000762939453125 24.600000381469726562 23.899999618530273438 22.899999618530273438 21.899999618530273438 20.899999618530273438 19.899999618530273438 18.799999237060546875 17.799999237060546875 17.200000762939453125 17.5 18.5 19.5 20 20.700000762939453125 21.299999237060546875 21.700000762939453125 21.799999237060546875 22.399999618530273438 22.899999618530273438 23 23.200000762939453125 23.799999237060546875 24 24 24 24.200000762939453125 24.299999237060546875 24.5 25 25.5 25.399999618530273438 24.700000762939453125 23.799999237060546875 23.5 23.899999618530273438 24.299999237060546875 24.299999237060546875 24 23.5
 16 15.5 15 14.300000190734863281 13.300000190734863281 12.300000190734863281 11.5 11 11.100000381469726562 11.5 11.600000381469726562 11 9.8999996185302734375 8.1999998092651367188 6.5 5.5 5.0999999046325683594 4.9000000953674316406 4.4000000953674316406 3.5999999046325683594 2.7999999523162841797 2.2999999523162841797 2.2000000476837158203 2.7000000476837158203 4.1999998092651367188 6.5999999046325683594 9 10.600000381469726562 11.300000190734863281 11.600000381469726562 11.600000381469726562 11 10.399999618530273438 9.6999998092651367188 9.1000003814697265625 8.3999996185302734375 8.1000003814697265625 8.3000001907348632812 8.3999996185302734375 8.1000003814697265625 7.5999999046325683594 7.6999998092651367188 8.3999996185302734375 9.1999998092651367188 10 10.600000381469726562 11.399999618530273438 12.399999618530273438 13 13.899999618530273438 14.899999618530273438 15.699999809265136719 16.600000381469726562 18.100000381469726562 19.700000762939453125 20.600000381469726562 21.299999237060546875 22 22.5 23 23.299999237060546875 23.399999618530273438 23.5 23.799999237060546875 24.100000381469726562 24.5 24.799999237060546875 24.899999618530273438 25 24.700000762939453125 24 23 22 21.100000381469726562 20.100000381469726562 18.899999618530273438 17.899999618530273438 17.5 18.299999237060546875 19.799999237060546875 21 21.399999618530273438 21.899999618530273438 22.399999618530273438 22.600000381469726562 22.799999237060546875 23.200000762939453125 23.600000381469726562 23.600000381469726562 23.700000762939453125 24 24.200000762939453125 24.200000762939453125 24.299999237060546875 24.299999237060546875 24.5 24.799999237060546875 25.200000762939453125 25.299999237060546875 24.899999618530273438 24.100000381469726562 23.700000762939453125 24 24.799999237060546875 25 24.299999237060546875 23.5 23
 17.799999237060546875 17.299999237060546875 16.700000762939453125 15.800000190734863281 14.800000190734863281 13.899999618530273438 13 12.300000190734863281 11.800000190734863281 11.600000381469726562 11.199999809265136719 10.100000381469726562 8.5 6.5999999046325683594 4.5 3.2999999523162841797 2.9000000953674316406 2.7999999523162841797 2.7000000476837158203 2.5999999046325683594 2.2999999523162841797 2.2000000476837158203 2.2000000476837158203 3 4.8000001907348632812 7.0999999046325683594 9.1000003814697265625 10.699999809265136719 11.699999809265136719 12.100000381469726562 12 11.5 10.899999618530273438 10.5 10.100000381469726562 9.6999998092651367188 9.5 9.6999998092651367188 9.5 8.8000001907348632812 8.3000001907348632812 8.6000003814697265625 8.8999996185302734375 9.1999998092651367188 9.5 10.100000381469726562 11.5 12.600000381469726562 13.300000190734863281 13.800000190734863281 14.899999618530273438 16.100000381469726562 17.299999237060546875 18.899999618530273438 20.200000762939453125 20.899999618530273438 21.200000762939453125 21.700000762939453125 22.299999237060546875 22.799999237060546875 23.299999237060546875 23.600000381469726562 23.600000381469726562 23.700000762939453125 24 24.399999618530273438 24.700000762939453125 24.799999237060546875 24.899999618530273438 24.799999237060546875 24.200000762939453125 23.299999237060546875 22.299999237060546875 21.200000762939453125 20.200000762939453125 19.100000381469726562 18.200000762939453125 18.100000381469726562 19.299999237060546875 20.799999237060546875 21.799999237060546875 22 22.200000762939453125 22.600000381469726562 22.899999618530273438 23.299999237060546875 23.799999237060546875 24 23.799999237060546875 23.899999618530273438 24.399999618530273438 24.600000381469726562 24.700000762939453125 24.399999618530273438 24.399999618530273438 24.700000762939453125 25.200000762939453125 25.600000381469726562 25.399999618530273438 24.600000381469726562 23.799999237060546875 23.799999237060546875 24.399999618530273438 25.200000762939453125 25.299999237060546875 24.299999237060546875 23 22.600000381469726562
 18.700000762939453125 18.100000381469726562 17.5 16.799999237060546875 16 15.199999809265136719 14.399999618530273438 13.800000190734863281 13.100000381469726562 12.300000190734863281 11.100000381469726562 9.3000001907348632812 7.0999999046325683594 4.8000001907348632812 3 2 1.8999999761581420898 2 2.2000000476837158203 2.2000000476837158203 2.2000000476837158203 1.8999999761581420898 2 3.0999999046325683594 5 7 8.8000001907348632812 10.399999618530273438 11.699999809265136719 12.199999809265136719 12 11.5 11.100000381469726562 10.800000190734863281 10.699999809265136719 10.5 10.600000381469726562 10.699999809265136719 10.5 9.6999998092651367188 9.5 9.6999998092651367188 9.6000003814697265625 9.1999998092651367188 9.1999998092651367188 10 11.5 13.100000381469726562 13.699999809265136719 14.300000190734863281 15.300000190734863281 16.899999618530273438 18.299999237060546875 19.5 20.5 21 21.299999237060546875 21.700000762939453125 22.100000381469726562 22.700000762939453125 23.299999237060546875 23.700000762939453125 23.799999237060546875 23.899999618530273438 24 24.299999237060546875 24.5 24.700000762939453125 24.700000762939453125 24.600000381469726562 24.200000762939453125 23.5 22.399999618530273438 21.299999237060546875 20.200000762939453125 19.299999237060546875 18.600000381469726562 18.700000762939453125 19.799999237060546875 21.200000762939453125 22.100000381469726562 22.100000381469726562 22.100000381469726562 22.399999618530273438 22.700000762939453125 23.399999618530273438 23.899999618530273438 24 23.899999618530273438 24.200000762939453125 24.600000381469726562 24.799999237060546875 24.700000762939453125 24.399999618530273438 24.200000762939453125 24.700000762939453125 25.5 26 25.799999237060546875 25.100000381469726562 24.5 24.299999237060546875 24.299999237060546875 24.799999237060546875 25 24.200000762939453125 23.100000381469726562 22.399999618530273438
 18.899999618530273438 18 17.399999618530273438 16.799999237060546875 16.399999618530273438 15.800000190734863281 15.399999618530273438 15.100000381469726562 14.600000381469726562 13.600000381469726562 11.899999618530273438 9.5 6.6999998092651367188 4.1999998092651367188 2.4000000953674316406 1.7999999523162841797 1.8999999761581420898 2 2 2 1.8999999761581420898 1.6000000238418579102 1.7000000476837158203 2.7999999523162841797 4.8000001907348632812 6.6999998092651367188 8.5 10.100000381469726562 11.399999618530273438 12.199999809265136719 12.199999809265136719 11.899999618530273438 11.600000381469726562 11.5 11.5 11.5 11.399999618530273438 11.300000190734863281 11.100000381469726562 10.800000190734863281 10.600000381469726562 10.699999809265136719 10.199999809265136719 9.8000001907348632812 9.8999996185302734375 10.5 11.800000190734863281 13.199999809265136719 14.100000381469726562 14.699999809265136719 15.800000190734863281 17.299999237060546875 18.799999237060546875 19.799999237060546875 20.5 21 21.399999618530273438 21.700000762939453125 22 22.399999618530273438 23.100000381469726562 23.600000381469726562 23.799999237060546875 23.899999618530273438 24 24.200000762939453125 24.399999618530273438 24.5 24.5 24.299999237060546875 23.899999618530273438 23.299999237060546875 22.399999618530273438 21.299999237060546875 20.299999237060546875 19.399999618530273438 18.899999618530273438 19 19.799999237060546875 21 22 22.299999237060546875 22.5 22.5 22.5 22.799999237060546875 23.399999618530273438 23.799999237060546875 23.899999618530273438 24.200000762939453125 24.399999618530273438 24.399999618530273438 24.200000762939453125 24 24 24.700000762939453125 25.399999618530273438 25.700000762939453125 25.600000381469726562 25.399999618530273438 24.899999618530273438 24.200000762939453125 23.600000381469726562 24.100000381469726562 25 24.700000762939453125 23.299999237060546875 22.399999618530273438
 18.700000762939453125 17.399999618530273438 16.5 16.200000762939453125 16.299999237060546875 16.399999618530273438 16.299999237060546875 16 15.600000381469726562 14.600000381469726562 12.699999809265136719 9.8000001907348632812 6.6999998092651367188 4 2.4000000953674316406 1.8999999761581420898 2 2 2 2 2.0999999046325683594 1.7999999523162841797 1.7999999523162841797 2.7999999523162841797 4.5 6.5 8.1999998092651367188 9.8000001907348632812 11.300000190734863281 12.5 13.199999809265136719 13.399999618530273438 13.399999618530273438 13.300000190734863281 13.199999809265136719 12.699999809265136719 12 11.399999618530273438 11.199999809265136719 11.199999809265136719 11.199999809265136719 11 10.600000381469726562 10.5 11 11.600000381469726562 12.399999618530273438 13.399999618530273438 14.399999618530273438 15.399999618530273438 16.299999237060546875 17.399999618530273438 18.899999618530273438 20.100000381469726562 20.700000762939453125 21.200000762939453125 21.700000762939453125 21.899999618530273438 21.899999618530273438 22.200000762939453125 22.799999237060546875 23.399999618530273438 23.600000381469726562 23.700000762939453125 23.799999237060546875 24 24.200000762939453125 24.299999237060546875 24.299999237060546875 24 23.600000381469726562 23 22.200000762939453125 21.299999237060546875 20.299999237060546875 19.399999618530273438 18.899999618530273438 19.200000762939453125 19.899999618530273438 20.899999618530273438 22 22.700000762939453125 23.100000381469726562 23 22.600000381469726562 22.399999618530273438 22.799999237060546875 23.399999618530273438 23.600000381469726562 23.899999618530273438 23.899999618530273438 23.700000762939453125 23.600000381469726562 23.5 23.899999618530273438 24.700000762939453125 25 24.899999618530273438 24.899999618530273438 25 24.799999237060546875 24 23.399999618530273438 23.899999618530273438 25 24.899999618530273438 23.600000381469726562 22.399999618530273438
 18 16.600000381469726562 15.5 15.300000190734863281 15.800000190734863281 16.399999618530273438 16.5 16 15.399999618530273438 14.300000190734863281 12.199999809265136719 9.1999998092651367188 6.1999998092651367188 3.7999999523162841797 2.4000000953674316406 2 2 2.0999999046325683594 2.0999999046325683594 2.2000000476837158203 2.2999999523162841797 2.4000000953674316406 2.5 3.0999999046325683594 4.5 6.3000001907348632812 8.3000001907348632812 9.8999996185302734375 11.399999618530273438 12.800000190734863281 13.899999618530273438 14.699999809265136719 14.899999618530273438 14.800000190734863281 14.199999809265136719 13.600000381469726562 12.800000190734863281 11.699999809265136719 11.5 11.699999809265136719 11.699999809265136719 11.5 11.199999809265136719 11.399999618530273438 12 12.300000190734863281 12.800000190734863281 13.699999809265136719 14.800000190734863281 15.800000190734863281 16.600000381469726562 17.600000381469726562 19.100000381469726562 20.399999618530273438 21.200000762939453125 21.600000381469726562 22 22.200000762939453125 22.200000762939453125 22.299999237060546875 22.700000762939453125 23.100000381469726562 23.5 23.600000381469726562 23.700000762939453125 23.799999237060546875 24.100000381469726562 24.299999237060546875 24.200000762939453125 23.899999618530273438 23.5 22.899999618530273438 22.100000381469726562 21.200000762939453125 20.200000762939453125 19.299999237060546875 18.700000762939453125 19.100000381469726562 20 21.100000381469726562 22.100000381469726562 22.799999237060546875 23.200000762939453125 23.399999618530273438 22.799999237060546875 22.399999618530273438 22.5 23.100000381469726562 23.5 23.5 23.399999618530273438 23.100000381469726562 23 23 23.700000762939453125 24.700000762939453125 24.899999618530273438 24.5 24.299999237060546875 24.600000381469726562 24.700000762939453125 24.299999237060546875 23.799999237060546875 24 24.600000381469726562 24.600000381469726562 23.700000762939453125 22.899999618530273438
 17.899999618530273438 16.600000381469726562 15.5 15.100000381469726562 15.5 16.100000381469726562 15.899999618530273438 15.100000381469726562 14.100000381469726562 13.100000381469726562 11 8.1999998092651367188 5.5 3.5999999046325683594 2.5 2.0999999046325683594 2.0999999046325683594 2.0999999046325683594 2.2000000476837158203 2.2999999523162841797 2.5 3 3.5999999046325683594 4.5 5.5 7 8.5 10.100000381469726562 11.699999809265136719 13.300000190734863281 14.5 15.300000190734863281 15.600000381469726562 15.399999618530273438 14.800000190734863281 14.199999809265136719 13.199999809265136719 11.899999618530273438 11.800000190734863281 12.399999618530273438 12.5 12.399999618530273438 12.199999809265136719 12.300000190734863281 12.699999809265136719 12.899999618530273438 13.199999809265136719 13.899999618530273438 14.800000190734863281 15.899999618530273438 16.899999618530273438 18.100000381469726562 19.600000381469726562 21 21.5 21.899999618530273438 22.299999237060546875 22.600000381469726562 22.600000381469726562 22.600000381469726562 22.700000762939453125 23 23.5 23.700000762939453125 23.600000381469726562 23.700000762939453125 24 24.200000762939453125 24 23.700000762939453125 23.299999237060546875 22.700000762939453125 22 21.100000381469726562 20.100000381469726562 19.200000762939453125 18.600000381469726562 18.799999237060546875 19.700000762939453125 20.799999237060546875 21.600000381469726562 22.100000381469726562 22.5 22.799999237060546875 22.899999618530273438 22.5 22.200000762939453125 22.5 22.899999618530273438 23.100000381469726562 22.899999618530273438 22.899999618530273438 22.899999618530273438 22.799999237060546875 23.5 24.600000381469726562 25 24.700000762939453125 24.700000762939453125 24.799999237060546875 25 24.799999237060546875 24.399999618530273438 24.200000762939453125 24.299999237060546875 24.5 24.200000762939453125 23.799999237060546875
 18.5 17.700000762939453125 16.799999237060546875 16.399999618530273438 16.299999237060546875 16.399999618530273438 15.899999618530273438 14.800000190734863281 13.5 12.199999809265136719 10 7.0999999046325683594 4.6999998092651367188 3.2999999523162841797 2.5 2.2000000476837158203 2.2000000476837158203 2.2000000476837158203 2.2999999523162841797 2.4000000953674316406 2.5999999046325683594 3.2999999523162841797 4.5999999046325683594 6 7 8 9 10.399999618530273438 12 13.600000381469726562 14.899999618530273438 15.800000190734863281 16.100000381469726562 15.899999618530273438 15.399999618530273438 14.899999618530273438 13.800000190734863281 12.199999809265136719 12 12.399999618530273438 12.600000381469726562 12.800000190734863281 12.800000190734863281 12.899999618530273438 13.100000381469726562 13.100000381469726562 13.199999809265136719 13.800000190734863281 14.5 15.600000381469726562 17 18.600000381469726562 20.299999237060546875 21.299999237060546875 21.799999237060546875 22.100000381469726562 22.5 22.700000762939453125 22.700000762939453125 22.799999237060546875 23 23.299999237060546875 23.799999237060546875 24 23.700000762939453125 23.700000762939453125 24 24.100000381469726562 23.899999618530273438 23.700000762939453125 23.200000762939453125 22.600000381469726562 21.899999618530273438 21.100000381469726562 20.200000762939453125 19.399999618530273438 18.799999237060546875 18.600000381469726562 19.100000381469726562 20.100000381469726562 21 21.399999618530273438 21.600000381469726562 22 22.399999618530273438 22.299999237060546875 21.799999237060546875 21.700000762939453125 22 22.299999237060546875 22.399999618530273438 22.600000381469726562 22.899999618530273438 23 23.299999237060546875 24 24.600000381469726562 25 25.200000762939453125 25.399999618530273438 25.700000762939453125 25.5 24.899999618530273438 24.5 24.399999618530273438 24.799999237060546875 24.799999237060546875 24.5
 19.100000381469726562 18.5 17.799999237060546875 17.399999618530273438 17.399999618530273438 17.299999237060546875 16.600000381469726562 15.300000190734863281 13.600000381469726562 11.600000381469726562 8.6999998092651367188 5.5999999046325683594 3.5 2.5999999046325683594 2.2999999523162841797 2.0999999046325683594 2.0999999046325683594 2.2000000476837158203 2.2000000476837158203 2.2999999523162841797 2.5999999046325683594 3.2000000476837158203 4.5 6 7.0999999046325683594 7.9000000953674316406 8.8999996185302734375 10.300000190734863281 11.899999618530273438 13.600000381469726562 15 16 16.399999618530273438 16.299999237060546875 16.100000381469726562 16.299999237060546875 15.600000381469726562 14.100000381469726562 13.300000190734863281 12.899999618530273438 12.399999618530273438 12.800000190734863281 13.399999618530273438 13.399999618530273438 13.199999809265136719 12.899999618530273438 12.800000190734863281 13.199999809265136719 13.899999618530273438 15 16.899999618530273438 19.100000381469726562 20.600000381469726562 21.5 21.899999618530273438 22.399999618530273438 22.700000762939453125 22.799999237060546875 22.799999237060546875 23.100000381469726562 23.600000381469726562 24.100000381469726562 24.399999618530273438 24.399999618530273438 24.100000381469726562 24 24 24 23.899999618530273438 23.700000762939453125 23.100000381469726562 22.5 21.799999237060546875 21.100000381469726562 20.299999237060546875 19.600000381469726562 19 18.600000381469726562 18.799999237060546875 19.600000381469726562 20.5 21 21.100000381469726562 21.399999618530273438 21.899999618530273438 22 21.700000762939453125 21.299999237060546875 21.399999618530273438 21.600000381469726562 21.600000381469726562 22 22.600000381469726562 22.899999618530273438 23 23.100000381469726562 23.700000762939453125 24.399999618530273438 24.899999618530273438 25.399999618530273438 25.700000762939453125 25.600000381469726562 25.100000381469726562 24.600000381469726562 24.5 24.899999618530273438 25.100000381469726562 24.899999618530273438
 18.899999618530273438 18.5 17.799999237060546875 17.5 17.5 17.299999237060546875 16.700000762939453125 15.399999618530273438 13.399999618530273438 10.600000381469726562 7.1999998092651367188 4.1999998092651367188 2.5999999046325683594 2.2000000476837158203 2.0999999046325683594 2.0999999046325683594 2.0999999046325683594 2.2999999523162841797 2.4000000953674316406 2.7999999523162841797 3.2999999523162841797 3.7999999523162841797 4.5999999046325683594 5.5999999046325683594 6.5 7.3000001907348632812 8.3999996185302734375 9.8000001907348632812 11.600000381469726562 13.300000190734863281 14.899999618530273438 15.899999618530273438 16.5 16.700000762939453125 17.100000381469726562 17.600000381469726562 17.5 16.399999618530273438 15.199999809265136719 13.800000190734863281 12.800000190734863281 13.199999809265136719 14 14 13.300000190734863281 12.399999618530273438 12 12.399999618530273438 13.300000190734863281 14.800000190734863281 17.299999237060546875 19.700000762939453125 21.100000381469726562 21.5 22 22.600000381469726562 23 23 23.100000381469726562 23.700000762939453125 24.5 25.100000381469726562 25.299999237060546875 24.899999618530273438 24.600000381469726562 24.5 24.299999237060546875 24 23.899999618530273438 23.600000381469726562 23 22.299999237060546875 21.600000381469726562 21 20.399999618530273438 19.700000762939453125 19.200000762939453125 18.700000762939453125 18.700000762939453125 19.200000762939453125 19.899999618530273438 20.299999237060546875 20.600000381469726562 20.899999618530273438 21.299999237060546875 21.600000381469726562 21.600000381469726562 21.399999618530273438 21.299999237060546875 21.5 21.600000381469726562 21.700000762939453125 22.200000762939453125 22.700000762939453125 22.799999237060546875 22.700000762939453125 22.899999618530273438 23.600000381469726562 24 24.600000381469726562 25 25.100000381469726562 24.899999618530273438 24.600000381469726562 24.399999618530273438 24.899999618530273438 25.399999618530273438 25.700000762939453125
